!!!!SEGMENT: s-uu--instr-mus-i-hs-3-11_forster-kaspar--sonata-la-sidon.krn
!!!cenid: 16xx:1680
!!!COM: Förster, Kaspar
!!!COM-rismID: pe30006147
!!!CDT: ~1616-1673/02/02
!!!CNT: German
!!!OTL: Sonata La Sidon
!!!PDT: 1668
!!!AGN: Secular; Sonata
!!!YEC: Copyright 2022 Narodowy Instytut Fryderyka Chopina (https://polishscores.org)
!!!YEM: License CC-BY-4.0 (https://creativecommons.org/licenses/by/4.0)
!!!SMS-siglum: S-Uu
!!!SMS-shelfmark: Instr. mus. i hs. 3:11
!!!SMS-shelfwork: W
!!!SMS-variant:
!!!SMS-altvar:
!!!NIFC-rismSourceID: 190008748
!!!NIFC-rismChildID: 190008748
!!!NIFC-islandoraID: none
!!!URL-pdf-islandora:
!!!URL-scan: https://www2.musik.uu.se/duben/presentationSource1.php?Select_Dnr=2110 @EN{Scan on Academica} @PL{Skany w zewnętrznej bibliotece cyfrowej}
!!!IIIF:
!!!ONB-nifc: UWAGA: poszczególne partie dostępne po kliknięciu w „browse part”. Informacje nt stron tytułowych w opisie na stronie lub na RISM.
!!!AIN: 1 organ 1 violb 2 violn
!!!OMD:
!!!OMD-mod: Allegro
!!!key: F
**kern	**fba	**dynam	**kern	**dynam	**kern	**dynam	**kern	**dynam
*part4	*	*	*part3	*	*part2	*	*part1	*
*staff4	*	*	*staff3	*	*staff2	*	*staff1	*
*>[A,B,A]	*	*	*>[A,B,A]	*	*>[A,B,A]	*	*>[A,B,A]	*
*>A	*	*	*>A	*	*>A	*	*>A>A	*
*I"Continuo	*	*	*I"Violadi Gamba:	*	*I"Violino 2.	*	*I"Violino Primo	*
*mI"Basso continuo	*	*	*mI"Viola da gamba 	*	*mI"Violino II	*	*mI"Violino I	*
*I'bc	*	*	*I'vla da gamba	*	*I'vl 2	*	*I'vl 1	*
*Iorgan	*	*	*Iviolb	*	*Ivioln	*	*Ivioln	*
*ICklav	*	*	*ICstr	*	*ICstr	*	*ICstr	*
*IGcont	*	*	*	*	*	*	*	*
*clefF4	*	*	*clefF4	*	*clefG2	*	*clefG2	*
*k[b-]	*	*	*k[b-]	*	*k[b-]	*	*k[b-]	*
*F:	*	*	*F:	*	*F:	*	*F:	*
*M4/4	*	*	*M4/4	*	*M4/4	*	*M4/4	*
*met(c)	*	*	*met(c)	*	*met(c)	*	*met(c)	*
*mmet(c)	*	*	*mmet(c)	*	*mmet(c)	*	*mmet(c)	*
=1-	=1-	=1-	=1-	=1-	=1-	=1-	=1-	=1-
!	!	!	!	!	!	!	!LO:TX:a:i:t=La Sidon:mod=	!
!LO:TX:a:i:t=La Sidon:rj:mod=	!	!	!LO:TX:b:Bi:t=allegro:mod=	!	!LO:TX:a:i:t=La Sidon:mod=	!	!LO:TX:b:Bi:t=allegro:mod=	!
!LO:TX:b:Bi:t=allegro:mod=	!	!	!LO:TX:a:i:t=La Sidon:mod=	!	!LO:TX:b:Bi:t=allegro:mod=	!	!LO:TX:a:t=1.:mod=	!
2F\	.	.	0r	.	4r	.	1r	.
.	.	.	.	.	8r	.	.	.
.	.	.	.	.	8f/	.	.	.
4F\	.	.	.	.	8cc\L	.	.	.
.	.	.	.	.	16cc\L	.	.	.
.	.	.	.	.	16cc\JJ	.	.	.
4AA/	6	.	.	.	16cc\LL	.	.	.
.	.	.	.	.	16cc\	.	.	.
.	.	.	.	.	16cc\	.	.	.
!	!	!	!	!	!LO:TX:t=P:problem=kreska pseudotaktowa	!	!	!
.	.	.	.	.	16cc\JJ	.	.	.
=2-	=2-	=2-	=2-	=2-	=2-	=2-	=2-	=2-
4BB-/	.	.	.	.	16dd\LL	.	4r	.
.	.	.	.	.	16cc\	.	.	.
.	.	.	.	.	16b-\	.	.	.
.	.	.	.	.	16a\JJ	.	.	.
8.C/L	.	.	.	.	16g/LL	.	8r	.
.	.	.	.	.	16e/	.	.	.
!	!	!	!	!	!	!	!LO:TX:t=P:problem=4,8,16\right:global	!
.	.	.	.	.	16d/	.	8cc\	.
16BB-/Jk	.	.	.	.	16e/JJ	.	.	.
!	!	!	!	!	!LO:TX:t=P:problem=mixed beam	!	!	!
8AA/L	6	.	.	.	16c/LL	.	8ff\L	.
.	.	.	.	.	16cc\	.	.	.
8GG/J	.	.	.	.	16b-\	.	16ff\L	.
.	.	.	.	.	16cc\JJ	.	16ff\JJ	.
!LO:TX:t=P:problem=kreska pseudotaktowa	!	!	!	!	!	!	!	!
4FF/	.	.	.	.	16a/LL	.	16ff\LL	.
.	.	.	.	.	16cc/	.	16ff\	.
.	.	.	.	.	16b-/	.	16ff\	.
!	!	!	!	!	!LO:TX:t=P:problem=kreska pseudotaktowa	!	!LO:TX:t=P:problem=kreska pseudotaktowa	!
.	.	.	.	.	16a/JJ	.	16ff\JJ	.
=3-	=3-	=3-	=3-	=3-	=3-	=3-	=3-	=3-
4.EE/	.	.	1r	.	8g/L	.	16gg\LL	.
.	.	.	.	.	.	.	16ff\	.
.	.	.	.	.	16g/L	.	16ee\	.
.	.	.	.	.	16g/JJ	.	16dd\JJ	.
.	.	.	.	.	8.g/L	.	16cc\LL	.
.	.	.	.	.	.	.	16ccc\	.
8EE/	6	.	.	.	.	.	16bb-\	.
.	.	.	.	.	16g/Jk	.	16ccc\JJ	.
!	!	!	!	!	!LO:TX:t=P:problem=mixed beam	!	!	!
4FF/	.	.	.	.	16a/LL	.	4aa\	.
.	.	.	.	.	16ff\	.	.	.
.	.	.	.	.	16ee\	.	.	.
.	.	.	.	.	16ff\JJ	.	.	.
4FF#X/	6	.	.	.	16dd\LL	.	8r	.
.	.	.	.	.	16dd\	.	.	.
!	!	!	!	!	!	!	!LO:TX:t=P:problem=kreska pseudotaktowa	!
.	.	.	.	.	16cc\	.	8aa\	.
!	!	!	!	!	!LO:TX:t=P:problem=kreska pseudotaktowa	!	!	!
.	.	.	.	.	16dd\JJ	.	.	.
=4-	=4-	=4-	=4-	=4-	=4-	=4-	=4-	=4-
!	!	!	!	!	!LO:TX:t=P:problem=mixed beam	!	!	!
!	!	!	!	!	!LO:N:acc=#	!	!LO:N:acc=#	!
2GG/	.	.	2r	.	16bn/LL	.	8bbn\L	.
.	.	.	.	.	16gg\	.	.	.
.	.	.	.	.	16ff\	.	16bb\L	.
.	.	.	.	.	16gg\JJ	.	16bb\JJ	.
.	.	.	.	.	16dd\LL	.	8.bb\L	.
.	.	.	.	.	16gg\	.	.	.
.	.	.	.	.	16ff\	.	.	.
.	.	.	.	.	16gg\JJ	.	16bb\Jk	.
*	*	*	*	*	*custos:ee	*	*	*
!	!	!	!	!	!LO:LB:g=original	!	!	!
4.C/	.	.	4r	.	16ee\LL	.	4ccc\	.
.	.	.	.	.	16cc\	.	.	.
!	!	!	!	!	!LO:SIC:s=16b-	!	!	!
.	.	.	.	.	16b-y\	.	.	.
.	.	.	.	.	16cc\JJ	.	.	.
!	!	!	!	!	!	!	!LO:TX:t=P:problem=kreska pseudotaktowa	!
.	.	.	8r	.	16g/LL	.	4r	.
.	.	.	.	.	16cc/	.	.	.
!LO:TX:t=P:problem=kreska pseudotaktowa	!	!	!LO:TX:t=P:problem=kreska pseudotaktowa	!	!	!	!	!
8C/	.	.	8C/	.	16b-/	.	.	.
!	!	!	!	!	!LO:TX:t=P:problem=kreska pseudotaktowa	!	!	!
.	.	.	.	.	16cc/JJ	.	.	.
=5-	=5-	=5-	=5-	=5-	=5-	=5-	=5-	=5-
4.F\	.	.	8F\L	.	4.a/	.	16r	.
.	.	.	.	.	.	.	16ff\LL	.
.	.	.	16F\L	.	.	.	16ee\	.
.	.	.	16F\JJ	.	.	.	16ff\JJ	.
.	.	.	16F\LL	.	.	.	16cc\LL	.
.	.	.	16F\	.	.	.	16ff\	.
8F\	.	.	16F\	.	8a/	.	16ee\	.
.	.	.	16F\JJ	.	.	.	16ff\JJ	.
16G\LL	-	.	16G\LL	.	8d/L	.	8b-/L	.
16F\	.	.	16F\	.	.	.	.	.
16E\	.	.	16E\	.	16g/L	.	16b-/L	.
16D\JJ	.	.	16D\JJ	.	16f/JJ	.	16b-/JJ	.
!LO:TX:t=P:problem=mixed beam	!	!	!LO:TX:t=P:problem=mixed beam	!	!	!	!	!
16C/LL	.	.	16C/LL	.	8e/L	.	16cc\LL	.
16c\	.	.	16c\	.	.	.	16ee\	.
!	!	!	!	!	!LO:TX:t=P:problem=kreska pseudotaktowa	!	!	!
16B-\	.	.	16B-\	.	8g/J	.	16cc\	.
!LO:TX:t=P:problem=kreska pseudotaktowa	!	!	!LO:TX:t=P:problem=kreska pseudotaktowa	!	!	!	!LO:TX:t=P:problem=kreska pseudotaktowa	!
16c\JJ	.	.	16c\JJ	.	.	.	16ee\JJ	.
=6-	=6-	=6-	=6-	=6-	=6-	=6-	=6-	=6-
8A\L	.	.	16A\LL	.	16a/LL	.	4ff\	.
.	.	.	16A\	.	16cc/	.	.	.
16G\L	.	.	16G\	.	16b-y/	.	.	.
16A\JJ	.	.	16A\JJ	.	16cc/JJ	.	.	.
!	!	!	!	!	!LO:TX:t=P:problem=mixed beam	!	!	!
8F\L	.	.	16F\LL	.	16a/LL	.	8r	.
.	.	.	16F\	.	16aa\	.	.	.
16E\L	.	.	16E\	.	16gg\	.	8f/	.
16F\JJ	.	.	16F\JJ	.	16aa\JJ	.	.	.
4AA/	6	.	4AA/	.	16ff\LL	.	8cc\L	.
.	.	.	.	.	16aa\	.	.	.
.	.	.	.	.	16ccc\	.	16cc\L	.
.	.	.	.	.	16bb-\JJ	.	16cc\JJ	.
!LO:TX:t=P:problem=kreska pseudotaktowa	!	!	!LO:TX:t=P:problem=kreska pseudotaktowa	!	!	!	!	!
4F\	.	.	4F\	.	8aa\L	.	16cc\LL	.
.	.	.	.	.	.	.	16cc\	.
.	.	.	.	.	16gg\L	.	16cc\	.
!	!	!	!	!	!LO:TX:t=P:problem=kreska pseudotaktowa	!	!	!
.	.	.	.	.	16aa\JJ	.	16cc\JJ	.
*	*	*	*	*	*	*	*custos:dd	*
!	!	!	!	!	!	!	!LO:LB:g=original	!
=7-	=7-	=7-	=7-	=7-	=7-	=7-	=7-	=7-
4BB-/	.	.	4BB-/	.	16bb-\LL	.	16dd\LL	.
.	.	.	.	.	16aa\	.	16cc\	.
.	.	.	.	.	16gg\	.	16b-\	.
.	.	.	.	.	16ff\JJ	.	16a\JJ	.
4C/	4	.	4C/	.	8.ff\L	.	16g/LL	.
.	.	.	.	.	.	.	16cc/	.
.	3	.	.	.	.	.	16b-/	.
.	.	.	.	.	16ee\Jk	.	16cc/JJ	.
4FFny/	.	.	4FF/	.	4ff\	.	16a/LL	.
.	.	.	.	.	.	.	16f/	.
.	.	.	.	.	.	.	16cc/	.
.	.	.	.	.	.	.	16b-/JJ	.
8F\L	.	.	16r	.	8r	.	8a/L	.
.	.	.	16F\LL	.	.	.	.	.
!	!	!	!	!	!LO:TX:t=P:problem=kreska pseudotaktowa	!	!	!
8E\J	.	.	16E\	.	8cc\	.	16g/L	.
!	!	!	!LO:TX:t=P:problem=kreska pseudotaktowa	!	!	!	!LO:TX:t=P:problem=kreska pseudotaktowa	!
.	.	.	16F\JJ	.	.	.	16a/JJ	.
*custos:D	*	*	*	*	*	*	*	*
!LO:LB:g=original	!	!	!	!	!	!	!	!
=8-	=8-	=8-	=8-	=8-	=8-	=8-	=8-	=8-
!LO:TX:t=P:problem=mixed beam	!	!	!LO:TX:t=P:problem=mixed beam	!	!	!	!	!
8D/L	.	.	16D/LL	.	8ff\L	.	4b-/	.
.	.	.	16d\	.	.	.	.	.
8d\	.	.	16c\	.	16ff\L	.	.	.
.	.	.	16d\JJ	.	16ff\JJ	.	.	.
8B-\	.	.	16B-\LL	.	16ff\LL	.	16r	.
.	.	.	16B-\	.	16ff\	.	16dd\LL	.
8A\J	.	.	16A\	.	16ff\	.	16cc\	.
.	.	.	16B-\JJ	.	16ff\JJ	.	16dd\JJ	.
4G\	.	.	4G\	.	16gg\LL	.	8b-/	.
.	.	.	.	.	16ff\	.	.	.
.	.	.	.	.	16ee\	.	4gg\	.
.	.	.	.	.	16dd\JJ	.	.	.
!LO:TX:t=P:problem=mixed beam	!	!	!LO:TX:t=P:problem=mixed beam	!	!	!	!	!
8E\L	6	.	8.E\L	.	16cc\LL	.	.	.
.	.	.	.	.	16dd\	.	.	.
!LO:TX:t=P:problem=kreska pseudotaktowa	!	!	!	!	!	!	!LO:TX:t=P:problem=kreska pseudotaktowa	!
8EE/J	.	.	.	.	16b-\	.	8gg\	.
!	!	!	!LO:TX:t=P:problem=kreska pseudotaktowa	!	!	!	!	!
.	.	.	16EE/Jk	.	16cc\JJ	.	.	.
*	*	*	*	*	*custos:a	*	*	*
!	!	!	!	!	!LO:LB:g=original	!	!	!
=9-	=9-	=9-	=9-	=9-	=9-	=9-	=9-	=9-
4FF/	5 4	.	16FF/LL	.	8a/	.	4aa\	.
.	.	.	16GG/	.	.	.	.	.
.	x 3	.	16AA/	.	4ff\	.	.	.
.	.	.	16BB-/JJ	.	.	.	.	.
4C/	3 9	.	16C/LL	.	.	.	4gg\	.
.	.	.	16D/	.	.	.	.	.
.	x 9	.	16E/	.	[8ee\	.	.	.
.	.	.	16C/JJ	.	.	.	.	.
*	*	*	*custos:D	*	*	*	*	*
!	!	!	!LO:LB:g=original	!	!	!	!	!
4D/	5 4	.	16D\LL	.	8ee\]	.	4ff\	.
.	.	.	16E\	.	.	.	.	.
.	x 3	.	16F\	.	4dd\	.	.	.
!	!	!	!LO:SIC:s=16GJJ	!	!	!	!	!
.	.	.	16G\	.	.	.	.	.
!	!	!	!LO:SIC:s=16ALL	!	!	!	!LO:TX:t=P:problem=kreska pseudotaktowa	!
8.A\L	.	.	16A\	.	.	.	4ee\	.
.	.	.	16G\	.	.	.	.	.
!	!	!	!	!	!LO:TX:t=P:problem=kreska pseudotaktowa	!	!	!
.	.	.	16A\	.	[8cc\	.	.	.
!	!	!	!LO:TX:t=P:problem=kreska pseudotaktowa	!	!	!	!	!
16E\Jk	6	.	16E\JJ	.	.	.	.	.
=10-	=10-	=10-	=10-	=10-	=10-	=10-	=10-	=10-
!LO:TX:t=P:problem=mixed beam	!	!	!LO:TX:t=P:problem=mixed beam	!	!	!	!	!
8F\L	.	.	16F\LL	.	8cc\]	.	4.dd\	.
.	.	.	16E\	.	.	.	.	.
8D\	.	.	16F\	.	4cc\	.	.	.
!	!	!	!LO:SIC:s=16DJJ	!	!	!	!	!
.	.	.	16D\	.	.	.	.	.
!	!	!	!LO:SIC:s=16GLL	!	!	!	!	!
8G\	4	.	16G\	.	.	.	.	.
.	.	.	16F\	.	.	.	.	.
!	!	!	!	!	!LO:N:acc=#	!	!	!
8GG/J	3	.	16G\	.	8bn/	.	8dd\	.
.	.	.	16GG/JJ	.	.	.	.	.
4C/	.	.	16C/LL	.	4cc\	.	4ee\	.
.	.	.	16C/	.	.	.	.	.
.	.	.	16BB-/	.	.	.	.	.
.	.	.	16C/JJ	.	.	.	.	.
!LO:TX:t=P:problem=kreska pseudotaktowa	!	!	!LO:TX:t=P:problem=kreska pseudotaktowa	!	!	!	!	!
4AA/	6	.	4AA/	.	16r	.	16r	.
.	.	.	.	.	16ff\LL	.	16aa\LL	.
.	.	.	.	.	16ee\	.	16gg\	.
!	!	!	!	!	!LO:TX:t=P:problem=kreska pseudotaktowa	!	!LO:TX:t=P:problem=kreska pseudotaktowa	!
.	.	.	.	.	16ff\JJ	.	16aa\JJ	.
=11-	=11-	=11-	=11-	=11-	=11-	=11-	=11-	=11-
4BB-/	.	.	16r	.	4dd\	.	4ff\	.
.	.	.	16BB-/LL	.	.	.	.	.
.	.	.	16AA/	.	.	.	.	.
.	.	.	16BB-/JJ	.	.	.	.	.
4GG/	.	.	4GG/	.	16r	.	16r	.
.	.	.	.	.	16gg\LL	.	16bb-y\LL	.
.	.	.	.	.	16ff\	.	16aa\	.
.	.	.	.	.	16gg\JJ	.	16bb-\JJ	.
4c\	.	.	16r	.	16ee\LL	.	4gg\	.
.	.	.	16c\LL	.	16ee\	.	.	.
.	.	.	16B-\	.	16dd\	.	.	.
.	.	.	16c\JJ	.	16ee\JJ	.	.	.
8A\L	6	.	8A\L	.	8cc\L	.	16r	.
.	.	.	.	.	.	.	16ccc\LL	.
!LO:TX:t=P:problem=kreska pseudotaktowa	!	!	!LO:TX:t=P:problem=kreska pseudotaktowa	!	!LO:TX:t=P:problem=kreska pseudotaktowa	!	!	!
8G\J	.	.	8G\J	.	8ee\J	.	16bb-\	.
!	!	!	!	!	!	!	!LO:TX:t=P:problem=kreska pseudotaktowa	!
.	.	.	.	.	.	.	16ccc\JJ	.
=12-	=12-	=12-	=12-	=12-	=12-	=12-	=12-	=12-
8F\L	.	.	16F\LL	.	4ff\	.	16aa\LL	.
.	.	.	16F\	.	.	.	16aa\	.
8E\	.	.	16E\	.	.	.	16gg\	.
.	.	.	16F\JJ	.	.	.	16aa\JJ	.
8D\	.	.	16D/LL	.	4aa\	.	16ff\LL	.
.	.	.	16D/	.	.	.	16ff\	.
8C\J	.	.	16C/	.	.	.	16ee\	.
.	.	.	16D/JJ	.	.	.	16ff\JJ	.
4.BB-/	5	.	8BB-/L	.	16bb-\LL	.	16dd\LL	.
.	.	.	.	.	16gg\	.	16bb-\	.
.	.	.	16BB-/L	.	16ff\	.	16aa\	.
.	.	.	16BB-/JJ	.	16gg\JJ	.	16bb-\JJ	.
.	.	.	8.BB-/L	.	16dd\LL	.	16ff\LL	.
.	.	.	.	.	16gg\	.	16bb-\	.
!LO:TX:t=P:problem=kreska pseudotaktowa	!	!	!	!	!	!	!	!
8BB-/	6	.	.	.	16ff\	.	16aa\	.
!	!	!	!LO:TX:t=P:problem=kreska pseudotaktowa	!	!LO:TX:t=P:problem=kreska pseudotaktowa	!	!	!
.	.	.	16BB-/Jk	.	16gg\JJ	.	16bb-\JJ	.
!	!	!	!	!	!	!	!LO:LB:g=original	!
=13-	=13-	=13-	=13-	=13-	=13-	=13-	=13-	=13-
8C/L	.	.	16C/LL	.	8ee\	.	8gg\L	.
.	.	.	16BB-/	.	.	.	.	.
8AA/	6	.	16AA/	.	4ff\	.	8aa\	.
.	.	.	16FF/JJ	.	.	.	.	.
8BB-/	.	.	16BB-/LL	.	.	.	8.gg\	.
.	.	.	16GG/J	.	.	.	.	.
8C/J	.	.	8C/J	.	8ee\	.	.	.
.	.	.	.	.	.	.	16gg\Jk	.
2F\	.	.	4F\	.	16ff\LL	.	4aa\	.
.	.	.	.	.	16cc\	.	.	.
.	.	.	.	.	16b-y\	.	.	.
.	.	.	.	.	16cc\JJ	.	.	.
.	.	.	8r	.	16a/LL	.	4r	.
.	.	.	.	.	16f/	.	.	.
.	.	.	8FF/	.	16c/	.	.	.
!	!	!	!	!	!LO:TX:t=P:problem=kreska pseudotaktowa	!	!	!
.	.	.	.	.	16f/JJ	.	.	.
*	*	*	*custos:C	*	*	*	*	*
!	!	!	!LO:LB:g=original	!	!	!	!	!
=14-	=14-	=14-	=14-	=14-	=14-	=14-	=14-	=14-
4.C/	.	.	8C/L	.	4e/	.	16r	.
.	.	.	.	.	.	.	16gg\LL	.
.	.	.	16C/L	.	.	.	16ff\	.
.	.	.	16C/JJ	.	.	.	16gg\JJ	.
.	.	.	16C/LL	.	4r	.	16ee\LL	.
.	.	.	16C/	.	.	.	16cc\	.
8C/	.	.	16C/	.	.	.	16b-\	.
.	.	.	16C/JJ	.	.	.	16cc\JJ	.
8D/L	.	.	16D/LL	.	4r	.	8f/L	.
.	.	.	16C/	.	.	.	.	.
8BB-/	.	.	16BB-/	.	.	.	16f/L	.
.	.	.	16AA/JJ	.	.	.	16f/JJ	.
8GG/	.	.	16GG/LL	.	8r	.	8g/L	.
.	.	.	16C/	.	.	.	.	.
!LO:TX:t=P:problem=kreska pseudotaktowa	!	!	!	!	!	!	!LO:TX:t=P:problem=kreska pseudotaktowa	!
8C/J	.	.	16BB-/	.	8cc\	.	8e/J	.
!	!	!	!LO:TX:t=P:problem=kreska pseudotaktowa	!	!	!	!	!
.	.	.	16C/JJ	.	.	.	.	.
*custos:AA	*	*	*	*	*	*	*	*
!LO:LB:g=original	!	!	!	!	!LO:LB:g=original	!	!	!
=15-	=15-	=15-	=15-	=15-	=15-	=15-	=15-	=15-
!LO:TX:t=P:problem=mixed beam	!	!	!LO:TX:t=P:problem=mixed beam	!	!	!	!	!
8AA/L	6	.	16AA/LL	.	8ff\L	.	4a/	.
.	.	.	16F\	.	.	.	.	.
8F\J	.	.	16E\	.	16ff\L	.	.	.
.	.	.	16F\JJ	.	16ff\JJ	.	.	.
4D/	6	.	16D/LL	.	16ff\LL	.	2b-/	.
.	.	.	16BB-/	.	16ff\	.	.	.
.	.	.	16C/	.	16ff\	.	.	.
.	.	.	16D/JJ	.	16ff\JJ	.	.	.
4E-X\	.	.	4E-X\	.	16gg\LL	.	.	.
.	.	.	.	.	16ff\	.	.	.
.	.	.	.	.	16ee-X\	.	.	.
.	.	.	.	.	16dd\JJ	.	.	.
!	!	!	!LO:TX:t=P:problem=kreska pseudotaktowa	!	!	!	!LO:TX:t=P:problem=kreska pseudotaktowa	!
4F\	4	.	4F\	.	16cc\LL	.	4a/	.
.	.	.	.	.	16ff\	.	.	.
!	!	!	!	!	!LO:SIC:s=16ee-	!	!	!
.	3	.	.	.	16ee-X\	.	.	.
!	!	!	!	!	!LO:TX:t=P:problem=kreska pseudotaktowa	!	!	!
.	.	.	.	.	16ff\JJ	.	.	.
=16-	=16-	=16-	=16-	=16-	=16-	=16-	=16-	=16-
4BB-/	.	.	16BB-/LL	.	4dd\	.	8b-/	.
.	.	.	16C/	.	.	.	.	.
.	.	.	16D/	.	.	.	4b-/	.
!	!	!	!LO:SIC:v:s=16E-/JJ	!	!	!	!	!
.	.	.	16Eny/JJ	.	.	.	.	.
4F\	4	.	16F\LL	.	4cc\	.	.	.
.	.	.	16G\	.	.	.	.	.
.	3	.	16A\	.	.	.	[8a/	.
.	.	.	16F\JJ	.	.	.	.	.
!	!	!	!LO:TX:t=P:problem=mixed beam	!	!	!	!	!
4G\	9	.	16G\LL	.	4b-/	.	8a/]	.
.	.	.	16GG/	.	.	.	.	.
.	8	.	16BB-/	.	.	.	4g/	.
.	.	.	16GG/JJ	.	.	.	.	.
!LO:TX:t=P:problem=kreska pseudotaktowa	!	!	!	!	!LO:TX:t=P:problem=kreska pseudotaktowa	!	!	!
4D/	5 4	.	16D\LL	.	4a/	.	.	.
!	!	!	!LO:SIC:v:s=16E-\	!	!	!	!	!
.	.	.	16E\	.	.	.	.	.
!	!	!	!	!	!	!	!LO:TX:t=P:problem=kreska pseudotaktowa	!
.	x 3	.	16F\	.	.	.	[8f/	.
!	!	!	!LO:TX:t=P:problem=kreska pseudotaktowa	!	!	!	!	!
.	.	.	16D\JJ	.	.	.	.	.
=17-	=17-	=17-	=17-	=17-	=17-	=17-	=17-	=17-
4E-X\	9	.	16E-X\LL	.	4g/	.	8f/]	.
.	.	.	16F\	.	.	.	.	.
.	8	.	16G\	.	.	.	4e-X/	.
.	.	.	16A\JJ	.	.	.	.	.
[4B-\	.	.	16B-\LL	.	4f/	.	.	.
.	.	.	16F\J	.	.	.	.	.
.	.	.	[8B-\J	.	.	.	8d/	.
!LO:TX:t=P:problem=mixed beam	!	!	!LO:TX:t=P:problem=mixed beam	!	!	!	!	!
8B-\L]	4 2	.	8B-\L]	.	8e-X/L	.	8.c/L	.
8A\	.	.	8A\	.	8f/J	.	.	.
.	.	.	.	.	.	.	16c/Jk	.
!	!	!	!	!	!	!	!LO:TX:t=P:problem=kreska pseudotaktowa	!
8B-\	.	.	8B-\	.	16f/LL	.	4d/	.
.	.	.	.	.	16b-/	.	.	.
!	!	!	!LO:TX:t=P:problem=kreska pseudotaktowa	!	!	!	!	!
[8BB-/J	5	.	[<8BB-/J	.	16a/	.	.	.
!	!	!	!	!	!LO:TX:t=P:problem=kreska pseudotaktowa	!	!	!
.	.	.	.	.	16b-/JJ	.	.	.
=18-	=18-	=18-	=18-	=18-	=18-	=18-	=18-	=18-
8BB-/L]	6	.	8BB-/L]	.	16g/LL	.	4r	.
.	.	.	.	.	16g/	.	.	.
8BB-/J	.	.	8BB-/J	.	16f/	.	.	.
.	.	.	.	.	16g/JJ	.	.	.
4.C/	5	.	8C/L	.	[4eny/	.	16r	.
.	.	.	.	.	.	.	16cc\LL	.
.	.	.	16C/L	.	.	.	16b-\	.
.	6	.	16C/JJ	.	.	.	16cc\JJ	.
.	.	.	8.C/L	.	8e/L]	.	16a/LL	.
.	.	.	.	.	.	.	16a/	.
8C/	.	.	.	.	8e/J	.	16g/	.
.	.	.	16C/Jk	.	.	.	16a/JJ	.
!LO:TX:t=P:problem=kreska pseudotaktowa	!	!	!	!	!LO:TX:t=P:problem=mixed beam	!	!LO:TX:t=P:problem=mixed beam	!
[4D/	.	.	[4D/	.	16f/LL	.	16f/LL	.
.	.	.	.	.	16dd\	.	16ff\	.
.	.	.	.	.	16cc\	.	16ee-X\	.
!	!	!	!	!	!LO:TX:t=P:problem=kreska pseudotaktowa	!	!	!
.	.	.	.	.	16dd\JJ	.	16ff\JJ	.
*	*	*	*custos:D	*	*	*	*custos:dd	*
!	!	!	!LO:LB:g=original	!	!	!	!LO:LB:g=original	!
=19-	=19-	=19-	=19-	=19-	=19-	=19-	=19-	=19-
8D/L]	6	.	8D/L]	.	16b-/LL	.	16dd\LL	.
.	.	.	.	.	16b-/	.	16dd\	.
8D/J	.	.	8D/J	.	16a/	.	16cc\	.
.	.	.	.	.	16b-/JJ	.	16dd\JJ	.
!	!	!	!	!	!LO:TX:t=P:problem=mixed beam	!	!LO:TX:t=P:problem=mixed beam	!
4.E-X\	5	.	8E-X\L	.	16g/LL	.	16b-/LL	.
.	.	.	.	.	16ee-X\	.	16gg\	.
.	.	.	16E-\L	.	16dd\	.	16ff\	.
.	6	.	16E-\JJ	.	16ee-\JJ	.	16gg\JJ	.
!	!	!	!LO:TX:t=P:problem=mixed beam	!	!	!	!	!
.	.	.	8.E-\L	.	16cc\LL	.	16ee-X\LL	.
.	.	.	.	.	16cc\	.	16ee-\	.
8E-\	.	.	.	.	16b-\	.	16dd\	.
.	.	.	16E-\K	.	16cc\JJ	.	16ee-X\JJ	.
!	!	!	!	!	!	!	!LO:TX:t=P:problem=kreska pseudotaktowa	!
4F\	.	.	8F\	.	8.a/L	.	4cc\	.
!	!	!	!LO:TX:t=P:problem=kreska pseudotaktowa	!	!	!	!	!
.	.	.	8FF/J	.	.	.	.	.
!	!	!	!	!	!LO:TX:t=P:problem=kreska pseudotaktowa	!	!	!
.	.	.	.	.	16f/Jk	.	.	.
*	*	*	*	*	*custos:cc	*	*	*
!	!	!	!	!	!LO:LB:g=original	!	!	!
=20-	=20-	=20-	=20-	=20-	=20-	=20-	=20-	=20-
4.AA/	6	.	8AA/L	.	8cc\L	.	2r	.
.	.	.	16AA/L	.	16cc\L	.	.	.
.	.	.	16AA/JJ	.	16cc\JJ	.	.	.
.	.	.	8.AA/L	.	16cc\LL	.	.	.
.	.	.	.	.	16cc\	.	.	.
8AA/	.	.	.	.	16cc\	.	.	.
.	.	.	16AA/Jk	.	16cc\JJ	.	.	.
4BB-/	.	.	4BB-/	.	16dd\LL	.	4r	.
.	.	.	.	.	16cc\	.	.	.
.	.	.	.	.	16b-\	.	.	.
.	.	.	.	.	16a\JJ	.	.	.
8.C/L	.	.	8.C/L	.	16g/LL	.	8r	.
.	.	.	.	.	16e/	.	.	.
!	!	!	!	!	!	!	!LO:TX:t=P:problem=kreska pseudotaktowa	!
.	.	.	.	.	16d/	.	8cc\	.
!LO:TX:t=P:problem=kreska pseudotaktowa	!	!	!LO:TX:t=P:problem=kreska pseudotaktowa	!	!LO:TX:t=P:problem=kreska pseudotaktowa	!	!	!
16BB-/Jk	.	.	16BB-/Jk	.	16e/JJ	.	.	.
=21-	=21-	=21-	=21-	=21-	=21-	=21-	=21-	=21-
!LO:TX:t=P:problem=mixed beam	!	!	!LO:TX:t=P:problem=mixed beam	!	!LO:TX:t=P:problem=mixed beam	!	!	!
8AA/L	.	.	8AA/L	.	16c/LL	.	8ff\L	.
.	.	.	.	.	16cc\	.	.	.
8GG/	.	.	8GG/	.	16b-\	.	16ff\L	.
.	.	.	.	.	16cc\JJ	.	16ff\JJ	.
8FF/	.	.	8FF/	.	16a\LL	.	16ff\LL	.
.	.	.	.	.	16cc\	.	16ff\	.
8F\J	.	.	8F\J	.	16b-\	.	16ff\	.
.	.	.	.	.	16a\JJ	.	16ff\JJ	.
4.Eny\	.	.	4.Eny\	.	8g/L	.	16gg\LL	.
.	.	.	.	.	.	.	16ff\	.
.	.	.	.	.	16g/L	.	16eeny\	.
.	.	.	.	.	16g/JJ	.	16dd\JJ	.
.	.	.	.	.	8.g/L	.	16cc\LL	.
.	.	.	.	.	.	.	16ccc\	.
!	!	!	!LO:TX:t=P:problem=kreska pseudotaktowa	!	!	!	!	!
8EE/	6	.	8EE/	.	.	.	16bb-\	.
!	!	!	!	!	!LO:TX:t=P:problem=kreska pseudotaktowa	!	!LO:TX:t=P:problem=kreska pseudotaktowa	!
.	.	.	.	.	16g/Jk	.	16ccc\JJ	.
=22-	=22-	=22-	=22-	=22-	=22-	=22-	=22-	=22-
!	!	!	!	!	!LO:TX:t=P:problem=mixed beam	!	!	!
4FF/	.	.	4FF/	.	16a/LL	.	4aa\	.
.	.	.	.	.	16ff\	.	.	.
.	.	.	.	.	16eeny\	.	.	.
.	.	.	.	.	16ff\JJ	.	.	.
4F#X\	.	.	8r	.	16dd\LL	.	8r	.
.	.	.	.	.	16dd\	.	.	.
.	.	.	8F#X\	.	16cc\	.	8aa\	.
.	.	.	.	.	16dd\JJ	.	.	.
!	!	!	!	!	!LO:TX:t=P:problem=mixed beam	!	!	!
!	!	!	!	!	!LO:N:acc=#	!	!LO:N:acc=#	!
2G\	#	.	4.G\	.	16bn/LL	.	8bbn\L	.
.	.	.	.	.	16gg\	.	.	.
.	.	.	.	.	16ff\	.	16bb\L	.
.	.	.	.	.	16gg\JJ	.	16bb\JJ	.
.	.	.	.	.	16dd\LL	.	8.bb\L	.
.	.	.	.	.	16gg\	.	.	.
!	!	!	!LO:TX:t=P:problem=kreska pseudotaktowa	!	!	!	!	!
.	.	.	8GG/	.	16ff\	.	.	.
!	!	!	!	!	!LO:TX:t=P:problem=kreska pseudotaktowa	!	!LO:TX:t=P:problem=kreska pseudotaktowa	!
.	.	.	.	.	16gg\JJ	.	16bb\Jk	.
*custos:C	*	*	*	*	*custos:ee	*	*	*
!LO:LB:g=original	!	!	!	!	!LO:LB:g=original	!	!	!
=23-	=23-	=23-	=23-	=23-	=23-	=23-	=23-	=23-
4.C/	.	.	4C/	.	16ee\LL	.	4ccc\	.
.	.	.	.	.	16cc\	.	.	.
.	.	.	.	.	16b-y\	.	.	.
.	.	.	.	.	16cc\JJ	.	.	.
.	.	.	8r	.	16g\LL	.	4r	.
.	.	.	.	.	16cc\	.	.	.
8C/	.	.	8C/	.	16b-\	.	.	.
.	.	.	.	.	16cc\JJ	.	.	.
2Fny\	.	.	8Fny\L	.	4.a/	.	16r	.
.	.	.	.	.	.	.	16ff\LL	.
.	.	.	16F\L	.	.	.	16ee\	.
.	.	.	16F\JJ	.	.	.	16ff\JJ	.
.	.	.	16F\LL	.	.	.	16cc\LL	.
.	.	.	16F\	.	.	.	16ff\	.
!	!	!	!	!	!LO:TX:t=P:problem=kreska pseudotaktowa	!	!	!
.	.	.	16F\	.	8a/	.	16ee\	.
!	!	!	!LO:TX:t=P:problem=kreska pseudotaktowa	!	!	!	!	!
.	.	.	16F\JJ	.	.	.	16ff\JJ	.
*	*	*	*	*	*	*	*custos:b	*
!	!	!	!	!	!	!	!LO:LB:g=original	!
=24-	=24-	=24-	=24-	=24-	=24-	=24-	=24-	=24-
16G\LL	-	.	16G\LL	.	8d/L	.	8b-/L	.
16F\	.	.	16F\	.	.	.	.	.
16E\	.	.	16E\	.	16g/L	.	16b-/L	.
16D\JJ	.	.	16D\JJ	.	16f/JJ	.	16b-/JJ	.
!LO:TX:t=P:problem=mixed beam	!	!	!LO:TX:t=P:problem=mixed beam	!	!	!	!	!
16C/LL	.	.	16C/LL	.	8e/L	.	16cc\LL	.
16c\	.	.	16c\	.	.	.	16ee\	.
16B-\	.	.	16B-\	.	8g/J	.	16dd\	.
16c\JJ	.	.	16c\JJ	.	.	.	16ee\JJ	.
8A\L	6	.	16A\LL	.	16a\LL	.	4ff\	.
.	.	.	16A\	.	16cc\	.	.	.
16G\L	.	.	16G\	.	16b-\	.	.	.
16A\JJ	.	.	16A\JJ	.	16cc\JJ	.	.	.
!	!	!	!	!	!LO:TX:t=P:problem=mixed beam	!	!	!
8F\L	.	.	16F\LL	.	16a/LL	.	8r	.
.	.	.	16F\	.	16aa\	.	.	.
!	!	!	!	!	!	!	!LO:TX:t=P:problem=kreska pseudotaktowa	!
16E\L	.	.	16E\	.	16gg\	.	8f/	.
!LO:TX:t=P:problem=kreska pseudotaktowa	!	!	!	!	!LO:TX:t=P:problem=kreska pseudotaktowa	!	!	!
16F\JJ	.	.	16F\JJ	.	16aa\JJ	.	.	.
*	*	*	*custos:AA	*	*	*	*	*
!	!	!	!LO:LB:g=original	!	!	!	!	!
=25-	=25-	=25-	=25-	=25-	=25-	=25-	=25-	=25-
4AA/	6	.	4AA/	.	16ff\LL	.	8cc\L	.
.	.	.	.	.	16aa\	.	.	.
.	.	.	.	.	16ccc\	.	16cc\L	.
.	.	.	.	.	16bb-\JJ	.	16cc\JJ	.
!	!	!	!LO:TX:t=P:problem=mixed beam	!	!	!	!	!
4F\	.	.	8F\L	.	8aa\L	.	16cc\LL	.
.	.	.	.	.	.	.	16cc\	.
.	.	.	8FF/J	.	16gg\L	.	16cc\	.
.	.	.	.	.	16aa\JJ	.	16cc\JJ	.
2BB-/	.	.	8BB-/L	.	8bb-\L	.	8dd\L	.
.	.	.	16BB-/L	.	8aa\	.	8cc\	.
.	.	.	16BB-/JJ	.	.	.	.	.
.	.	.	8.BB-/L	.	8gg\	.	8b-\	.
!	!	!	!	!	!LO:TX:t=P:problem=kreska pseudotaktowa	!	!LO:TX:t=P:problem=kreska pseudotaktowa	!
.	.	.	.	.	8ff\J	.	8a\J	.
!	!	!	!LO:TX:t=P:problem=kreska pseudotaktowa	!	!	!	!	!
.	.	.	16BB-/Jk	.	.	.	.	.
=26-	=26-	=26-	=26-	=26-	=26-	=26-	=26-	=26-
4C/	.	.	4C/	.	4ee\	.	2.g/	.
!LO:N:acc=#	!	!	!LO:N:acc=#	!	!	!	!	!
4BBn/	6 5	.	4BBn/	.	2ff\	.	.	.
2C/	x 3	.	2C/	.	.	.	.	.
.	5 4	.	.	.	.	.	.	.
.	x 3	.	.	.	4ee\	.	4g/	.
=27-	=27-	=27-	=27-	=27-	=27-	=27-	=27-	=27-
1FF/;	.	.	1FF/;	.	1ff\;<	.	1a/;	.
!!LO:TX:a:i:t= :mod=Fine:rj
!	!	!	!	!	!LO:LB:g=original	!	!	!
=28||	=28||	=28||	=28||	=28||	=28||	=28||	=28||	=28||
!!!OMD:
!!!OMD-mod: Adagio
*>B	*	*	*>B	*	*>B	*	*>B	*
!LO:TX:b:Bi:t=adagio:mod=	!	!	!LO:TX:b:Bi:t=adagio:mod=	!	!LO:TX:b:Bi:t=adagio:mod=	!	!LO:TX:b:Bi:t=adagio:mod=	!
1F\	.	.	[1F\	.	1a/	.	2cc\	.
.	.	.	.	.	.	.	2ff,\	.
=29-	=29-	=29-	=29-	=29-	=29-	=29-	=29-	=29-
2F\	4 2	.	2F\]	.	2.g/	.	[4bb-\	.
!	!	!	!	!	!	!	!LO:SIC:s=32bb-LLL]	!
.	.	.	.	.	.	.	(32bb-\LLL]	.
!	!	!	!	!	!	!	!LO:SIC:s=32aa	!
.	.	.	.	.	.	.	32aa\)	.
!	!	!	!	!	!	!	!LO:SIC:s=32gg	!
.	.	.	.	.	.	.	(32gg\	.
!	!	!	!	!	!	!	!LO:SIC:s=32ff	!
.	.	.	.	.	.	.	32ff\)	.
!	!	!	!	!	!	!	!LO:SIC:s=32ee	!
.	.	.	.	.	.	.	(32ee\	.
!	!	!	!	!	!	!	!LO:SIC:s=32dd	!
.	.	.	.	.	.	.	32dd\)	.
!	!	!	!	!	!	!	!LO:SIC:s=32cc	!
.	.	.	.	.	.	.	(32cc\	.
!	!	!	!	!	!	!	!LO:SIC:s=32b-JJJ	!
.	.	.	.	.	.	.	32b-\JJJ)	.
!LO:TX:t=P:problem=kreska pseudotaktowa	!	!	!	!	!	!	!	!
[2E\	6	.	2E\	.	.	.	4.ccc\	.
.	.	.	.	.	4g/	.	.	.
!	!	!	!	!	!	!	!LO:TX:t=P:problem=kreska pseudotaktowa	!
.	.	.	.	.	.	.	8bb-\	.
!	!	!	!LO:MO:mod=*null:null	!	!	!	!	!
*	*	*	*clefC4	*	*	*	*	*
=30-	=30-	=30-	=30-	=30-	=30-	=30-	=30-	=30-
2E\]	6 5	.	[4e\	.	2cc\	.	2.bb-\	.
!	!	!	!LO:SIC:s=32eLLL]	!	!	!	!	!
.	.	.	(32e\LLL]	.	.	.	.	.
!	!	!	!LO:SIC:s=32d	!	!	!	!	!
.	.	.	32d\)	.	.	.	.	.
!	!	!	!LO:SIC:s=32c	!	!	!	!	!
.	.	.	(32c\	.	.	.	.	.
!	!	!	!LO:SIC:s=32B-	!	!	!	!	!
.	x -	.	32B-\)	.	.	.	.	.
!	!	!	!LO:SIC:s=32A	!	!	!	!	!
.	.	.	(32A\	.	.	.	.	.
!	!	!	!LO:SIC:s=32G	!	!	!	!	!
.	.	.	32G\)	.	.	.	.	.
!	!	!	!LO:SIC:s=32F	!	!	!	!	!
.	.	.	(32F\	.	.	.	.	.
!	!	!	!LO:SIC:s=32EJJJ	!	!	!	!	!
.	.	.	32E\JJJ)	.	.	.	.	.
!	!	!	!LO:TX:t=P:problem=kreska pseudotaktowa	!	!LO:TX:t=P:problem=kreska pseudotaktowa	!	!	!
[2F\	x 4	.	[2F/	.	2cc\	.	.	.
.	x 3	.	.	.	.	.	4aa\	.
=31-	=31-	=31-	=31-	=31-	=31-	=31-	=31-	=31-
2F\]	.	.	2F/]	.	[4aa\	.	2ff\	.
!	!	!	!	!	!LO:SIC:s=32aaLLL]	!	!	!
.	.	.	.	.	(32aa\LLL]	.	.	.
!	!	!	!	!	!LO:SIC:s=32gg	!	!	!
.	.	.	.	.	32gg\)	.	.	.
!	!	!	!	!	!LO:SIC:s=32ff	!	!	!
.	.	.	.	.	(32ff\	.	.	.
!	!	!	!	!	!LO:SIC:s=32ee	!	!	!
.	.	.	.	.	32ee\)	.	.	.
!	!	!	!	!	!LO:SIC:s=32dd	!	!	!
.	.	.	.	.	(32dd\	.	.	.
!	!	!	!	!	!LO:SIC:s=32cc	!	!	!
.	.	.	.	.	32cc\)	.	.	.
!	!	!	!	!	!LO:SIC:s=32b-	!	!	!
.	.	.	.	.	(32b-\	.	.	.
!	!	!	!	!	!LO:SIC:s=32aJJJ	!	!	!
.	.	.	.	.	32a\JJJ)	.	.	.
!LO:TX:t=P:problem=kreska pseudotaktowa	!	!	!	!	!	!	!	!
2F#X\	6	.	2F#X/	.	[4dd\	.	2a/	.
!	!	!	!	!	!LO:SIC:s=32ddLLL]	!	!	!
.	.	.	.	.	(32dd\LLL]	.	.	.
!	!	!	!	!	!LO:SIC:s=32cc	!	!	!
.	.	.	.	.	32cc\)	.	.	.
!	!	!	!	!	!LO:SIC:s=32b-	!	!	!
.	.	.	.	.	(32b-\	.	.	.
!	!	!	!	!	!LO:SIC:s=32a	!	!	!
.	.	.	.	.	32a\)	.	.	.
!	!	!	!	!	!LO:SIC:s=32g	!	!	!
.	.	.	.	.	(32g\	.	.	.
!	!	!	!	!	!LO:SIC:v:s=32f#	!	!	!
.	.	.	.	.	32f\)	.	.	.
!	!	!	!	!	!LO:SIC:s=32e	!	!	!
.	.	.	.	.	(32e\	.	.	.
!	!	!	!	!	!LO:SIC:s=32dJJJ	!	!	!
!	!	!	!	!	!LO:TX:t=P:problem=kreska pseudotaktowa	!	!	!
.	.	.	.	.	32d\JJJ)	.	.	.
*	*	*	*	*	*	*	*custos:g	*
!	!	!	!	!	!	!	!LO:LB:g=original	!
=32-	=32-	=32-	=32-	=32-	=32-	=32-	=32-	=32-
!	!	!	!LO:SIC:s=[1G	!	!	!	!	!
[1G\	-	.	1G/	.	[4b-/	.	2g/	.
.	.	.	.	.	16b-/LL]	.	.	.
.	.	.	.	.	16a/	.	.	.
.	.	.	.	.	16g/	.	.	.
.	.	.	.	.	16f#X/JJ	.	.	.
!	!	!	!	!	!LO:TX:t=P:problem=kreska pseudotaktowa	!	!	!
.	.	.	.	.	2g/	.	[4bb-X\	.
.	.	.	.	.	.	.	32bb-\LLL]	.
.	.	.	.	.	.	.	32aa\	.
.	.	.	.	.	.	.	32gg\	.
.	.	.	.	.	.	.	32ff\	.
.	.	.	.	.	.	.	32ee\	.
.	.	.	.	.	.	.	32dd\	.
.	.	.	.	.	.	.	32cc#X\	.
!	!	!	!	!	!	!	!LO:TX:t=P:problem=kreska pseudotaktowa	!
!	!	!	!	!	!	!	!LO:TX:t=P:problem=# above	!
!	!	!	!	!	!	!	!LO:N:acc=#	!
.	.	.	.	.	.	.	32bn\JJJ	.
=33-	=33-	=33-	=33-	=33-	=33-	=33-	=33-	=33-
!LO:TX:t=P:problem=nieczytelne cyfrowanie	!	!	!LO:SIC:s=2G]	!	!	!	!	!
2G\]	6	.	2G/	.	2a/	.	[4cc#X\	.
.	.	.	.	.	.	.	16cc#\LL]	.
.	.	.	.	.	.	.	16ee\	.
.	.	.	.	.	.	.	16dd\	.
.	.	.	.	.	.	.	16cc#\JJ	.
2Fny\	6	.	2Fny/	.	2a/	.	[4dd\	.
.	.	.	.	.	.	.	16dd\LL]	.
.	.	.	.	.	.	.	16ff\	.
.	.	.	.	.	.	.	16ee\	.
!	!	!	!	!	!	!	!LO:TX:t=P:problem=kreska pseudotaktowa	!
.	.	.	.	.	.	.	16dd\JJ	.
!	!	!	!LO:MO:mod=*null:null	!	!	!	!	!
*custos:E	*	*	*clefF4	*	*	*	*	*
!LO:LB:g=original	!	!	!	!	!	!	!	!
=34-	=34-	=34-	=34-	=34-	=34-	=34-	=34-	=34-
2E\	6 #	.	[4E\	.	2cc#X\	.	[2gg\	.
!	!	!	!LO:SIC:s=32ELLL]	!	!	!	!	!
.	.	.	(32E/LLL]	.	.	.	.	.
!	!	!	!LO:SIC:s=32D	!	!	!	!	!
.	.	.	32D/)	.	.	.	.	.
!	!	!	!LO:SIC:s=32C#	!	!	!	!	!
.	.	.	(32C#X/	.	.	.	.	.
!	!	!	!LO:SIC:s=32BB	!	!	!	!	!
!	!	!	!LO:N:acc=#	!	!	!	!	!
.	.	.	32BBn/)	.	.	.	.	.
!	!	!	!LO:SIC:s=32AA	!	!	!	!	!
.	.	.	(32AA/	.	.	.	.	.
!	!	!	!LO:SIC:s=32GG	!	!	!	!	!
.	.	.	32GG/)	.	.	.	.	.
!	!	!	!LO:SIC:s=32FF#	!	!	!	!	!
.	.	.	(32FF#X/	.	.	.	.	.
!	!	!	!LO:SIC:s=32EEJJJ	!	!	!	!	!
.	.	.	32EE/JJJ)	.	.	.	.	.
*	*	*	*custos:DD	*	*	*	*	*
!	!	!	!LO:LB:g=original	!	!	!	!	!
2D/	.	.	4.DD/	.	1dd\	.	4gg\]	.
!	!	!	!	!	!	!	!LO:TX:t=P:problem=kreska pseudotaktowa	!
.	.	.	.	.	.	.	4ff\	.
.	.	.	8D,/	.	.	.	.	.
=35-	=35-	=35-	=35-	=35-	=35-	=35-	=35-	=35-
2GG#X/	6 -5	.	2GG#X/	.	.	.	2.ee\	.
!LO:TX:t=P:problem=kreska pseudotaktowa	!	!	!LO:TX:t=P:problem=kreska pseudotaktowa	!	!	!	!	!
2AA/	x -	.	2AA/	.	4ccny\	.	.	.
!	!	!	!	!	!LO:TX:t=P:problem=kreska pseudotaktowa	!	!	!
.	.	.	.	.	4a/	.	4ccny\	.
=36-	=36-	=36-	=36-	=36-	=36-	=36-	=36-	=36-
2D/	-6 5	.	2D/	.	2a/	.	1b-y\	.
2E\	5- 3	.	2E\	.	[2g,/	.	.	.
=37-	=37-	=37-	=37-	=37-	=37-	=37-	=37-	=37-
2F\	x 9	.	2F\	.	2g/]	.	1a/	.
!LO:TX:t=P:problem=kreska pseudotaktowa	!	!	!LO:TX:t=P:problem=kreska pseudotaktowa	!	!	!	!	!
2AA/	x 6	.	2AA/	.	[2fny,/	.	.	.
=38-	=38-	=38-	=38-	=38-	=38-	=38-	=38-	=38-
!LO:N:acc=#	!	!	!LO:N:acc=#	!	!	!	!LO:TX:t=P:problem=kreska pseudotaktowa	!
2BBn/	6 5-	.	2BBn/	.	2f/]	.	1g/	.
2C#X/	-5 3	.	2C#X/	.	[2e,/	.	.	.
!	!	!	!	!	!LO:LB:g=original	!	!	!
=39-	=39-	=39-	=39-	=39-	=39-	=39-	=39-	=39-
!LO:TX:t=P:problem=kreska pseudotaktowa	!	!	!	!	!	!	!	!
[<1D\	x 4	.	[<1D\,	.	2e/]	.	2.f/	.
.	.	.	.	.	4d/	.	.	.
.	x 3	.	.	.	4e/	.	4g/	.
=40-	=40-	=40-	=40-	=40-	=40-	=40-	=40-	=40-
2D/]	.	.	2D/]	.	2f/	.	4a/	.
!	!	!	!	!	!	!	!LO:N:acc=#	!
.	.	.	.	.	.	.	4bn/	.
[2AA/	5 #	.	[2AA,/	.	4e/	.	4.cc#X\	.
.	.	.	.	.	8a/L	.	.	.
!	!	!	!	!	!LO:TX:t=P:problem=kreska pseudotaktowa	!	!	!
!	!	!	!	!	!LO:N:acc=#	!	!LO:TX:t=P:problem=kreska pseudotaktowa	!
.	.	.	.	.	8bn/J	.	8dd\	.
=41-	=41-	=41-	=41-	=41-	=41-	=41-	=41-	=41-
2AA/]	.	.	2AA/]	.	4cc#X\	.	4ee\	.
.	.	.	.	.	4dd\	.	4ff\	.
!LO:TX:t=P:problem=kreska pseudotaktowa	!	!	!LO:SIC:s=2GG	!	!	!	!	!
2GGny/	8 6 #	.	2FFny/	.	4ee\	.	[2gg\	.
!	!	!	!	!	!LO:N:acc=#	!	!	!
.	.	.	.	.	4bn/	.	.	.
=42-	=42-	=42-	=42-	=42-	=42-	=42-	=42-	=42-
!LO:MO:mod=1AA	!	!	!LO:TX:t=P:problem=kreska pseudotaktowa	!	!	!	!	!
[2AA/	7 #	.	1AA/	.	4cc#X\	.	4gg\]	.
.	6 4	.	.	.	2dd\	.	4ff\	.
!LO:MO:mod=.	!	!	!	!	!	!	!	!
2AA/]	5 4	.	.	.	.	.	2ee\	.
!	!	!	!	!	!LO:TX:t=P:problem=kreska pseudotaktowa	!	!	!
.	x 3	.	.	.	4cc#X\	.	.	.
*	*	*	*	*	*	*	*custos:ff	*
!	!	!	!	!	!	!	!LO:LB:g=original	!
=43-	=43-	=43-	=43-	=43-	=43-	=43-	=43-	=43-
4D/	6	.	4D/	.	4dd\	.	2ff\	.
!	!	!	!	!	!LO:N:acc=#	!	!	!
4G\	7 #	.	4G\	.	[4bn/	.	.	.
.	3	.	.	.	.	.	.	.
4Cny/	7 3	.	4Cny/	.	4b/]	.	2ee\	.
!LO:TX:t=P:problem=kreska pseudotaktowa	!	!	!	!	!	!	!	!
4F\	7 3	.	4F\	.	4a/	.	.	.
=44-	=44-	=44-	=44-	=44-	=44-	=44-	=44-	=44-
2BB-y/	7 3	.	2BB-y/	.	2a/	.	1dd\	.
!	!	!	!LO:TX:t=P:problem=kreska pseudotaktowa	!	!	!	!	!
!LO:N:acc=#	!	!	!LO:N:acc=#	!	!	!	!	!
2BBn/	6	.	2BBn/	.	4g/	.	.	.
!	!	!	!	!	!LO:TX:t=P:problem=kreska pseudotaktowa	!	!	!
.	.	.	.	.	4f/	.	.	.
=45-	=45-	=45-	=45-	=45-	=45-	=45-	=45-	=45-
2C/	4 3	.	2C/	.	2e/	.	2ccny\	.
!LO:TX:t=P:problem=kreska pseudotaktowa	!	!	!	!	!	!	!	!
!LO:N:acc=#	!	!	!LO:N:acc=#	!	!	!	!	!
2BBn/	3 4	.	2BBn/	.	[2f/	.	2dd\	.
=46-	=46-	=46-	=46-	=46-	=46-	=46-	=46-	=46-
1C/	5 4	.	1C/	.	2f/]	.	2.g/	.
!	!	!	!	!	!LO:TX:t=P:problem=kreska pseudotaktowa	!	!	!
.	x 3	.	.	.	2e/	.	.	.
!	!	!	!	!	!	!	!LO:TX:t=P:problem=kreska pseudotaktowa	!
.	.	.	.	.	.	.	4g/	.
=47-	=47-	=47-	=47-	=47-	=47-	=47-	=47-	=47-
!!!OMD:
!!!OMD-mod: Presto
!LO:TX:b:Bi:t=allegro:mod=	!	!	!	!	!LO:TX:t=P:problem=mixed beam	!	!	!
[2F\	5	.	4FF/	.	8f/L	.	4a/	.
!	!	!	!	!	!LO:TX:b:Bi:t=presto:mod=	!	!	!
.	6	.	.	.	8ccny\	.	.	.
!	!	!	!	!	!	!	!LO:TX:b:Bi:t=presto:mod=	!
.	.	.	4r	.	8dd\	.	4r	.
.	.	.	.	.	8a\J	.	.	.
4F\]	4 2	.	2r	.	8b-y/L	.	2r	.
.	6	.	.	.	8g/	.	.	.
4E\	x 6	.	.	.	8cc/	.	.	.
.	.	.	.	.	8b-/J	.	.	.
*	*	*	*	*	*custos:a	*	*	*
!LO:LB:g=original	!	!	!	!	!LO:LB:g=original	!	!	!
=48-	=48-	=48-	=48-	=48-	=48-	=48-	=48-	=48-
!	!	!	!LO:TX:a:t=1.:mod=	!	!	!	!	!
4F\	.	.	1r;	.	8a/L	.	8r	.
.	.	.	.	.	8f/	.	8ff\L	.
!LO:N:acc=#	!	!	!	!	!	!	!	!
4BBn/	6 5	.	.	.	8d/	.	8gg\	.
.	x -	.	.	.	8g/J	.	8dd\J	.
4C/	6	.	.	.	8r	.	8ee-X\	.
.	.	.	.	.	8cc\L	.	4cc\	.
8F\L	6 5	.	.	.	8dd\	.	.	.
!	!	!	!	!	!	!	!LO:TX:t=P:problem=kreska pseudotaktowa	!
!	!	!	!	!	!LO:TX:t=P:problem=kreska pseudotaktowa	!	!LO:N:acc=#	!
8G\J	x #	.	.	.	8dd\J	.	8bn/	.
*	*	*	*custos:C	*	*	*	*	*
!	!	!	!LO:LB:g=original	!	!	!	!	!
=49-	=49-	=49-	=49-	=49-	=49-	=49-	=49-	=49-
!	!	!	!LO:TX:b:Bi:t=presto:mod=	!	!	!	!	!
4C/	#	.	8r	.	8ee\L	.	8cc\L	.
.	.	.	8C/L	.	8ee\	.	8gg\	.
8D/L	.	.	8D/	.	8ff\	.	8gg\	.
8AA/J	6	.	8AA/J	.	8ff\J	.	8gg\J	.
8BB-y/L	6 5	.	8BB-y/L	.	4ff\	.	4.gg\	.
8GG/	.	.	8GGny/J	.	.	.	.	.
!	!	!	!LO:TX:t=P:problem=kreska pseudotaktowa	!	!LO:TX:t=P:problem=kreska pseudotaktowa	!	!	!
8C/	4	.	4C/	.	4ee\	.	.	.
!LO:TX:t=P:problem=kreska pseudotaktowa	!	!	!	!	!	!	!	!
8CC/J	3	.	.	.	.	.	16ff\LL	.
.	.	.	.	.	.	.	16gg\JJ	.
=50-	=50-	=50-	=50-	=50-	=50-	=50-	=50-	=50-
!LO:TX:t=P:problem=mixed beam	!	!	!LO:TX:t=P:problem=mixed beam	!	!LO:TX:t=P:problem=mixed beam	!	!	!
8FF/L	.	.	8FF/L	.	8ff\L	.	4aa\	.
8F\J	.	.	8F\	.	8a/	.	.	.
4G\	.	.	8G\	.	8b-/	.	4r	.
.	.	.	8G\J	.	8b-/J	.	.	.
!LO:TX:t=P:problem=mixed beam	!	!	!LO:TX:t=P:problem=mixed beam	!	!	!	!	!
8A\L	.	.	8A\L	.	8cc/L	.	8r	.
8AA/J	.	.	8AA/	.	8a/J	.	8cc\L	.
!LO:N:acc=#	!	!	!LO:N:acc=#	!	!	!	!	!
4BBn/	6	.	8BBn/	.	16g/LL	.	8dd\	.
.	.	.	.	.	16a/	.	.	.
!	!	!	!LO:TX:t=P:problem=kreska pseudotaktowa	!	!	!	!LO:TX:t=P:problem=kreska pseudotaktowa	!
.	.	.	8BB/J	.	16g/	.	8dd\J	.
!	!	!	!	!	!LO:TX:t=P:problem=kreska pseudotaktowa	!	!	!
.	.	.	.	.	16f/JJ	.	.	.
=51-	=51-	=51-	=51-	=51-	=51-	=51-	=51-	=51-
!	!	!	!	!	!LO:TX:t=P:problem=mixed beam	!	!	!
4C/	.	.	16C/LL	.	8e/L	.	8eeny\L	.
.	.	.	16D/	.	.	.	.	.
.	.	.	16C/	.	8ee\	.	8gg\	.
.	.	.	16BB-y/JJ	.	.	.	.	.
4AA/	6\	.	8.AA/L	.	8ff#X\	.	8aa\	.
.	.	.	.	.	8ff#\J	.	8aa\J	.
.	.	.	16AA/Jk	.	.	.	.	.
!	!	!	!LO:TX:t=P:problem=mixed beam	!	!LO:TX:t=P:problem=mixed beam	!	!	!
4GG/	.	.	8GG/L	.	8gg\L	.	8bb-\L	.
.	.	.	8G\	.	8b-/	.	8gg\J	.
!LO:TX:t=P:problem=kreska pseudotaktowa	!	!	!	!	!	!	!	!
4AA/	6	.	8A\	.	8cc/	.	16ff\LL	.
.	.	.	.	.	.	.	16gg\	.
!	!	!	!LO:TX:t=P:problem=kreska pseudotaktowa	!	!LO:TX:t=P:problem=kreska pseudotaktowa	!	!	!
.	.	.	8AA/J	.	8cc/J	.	16ff\	.
!	!	!	!	!	!	!	!LO:TX:t=P:problem=kreska pseudotaktowa	!
.	.	.	.	.	.	.	16ee-X\JJ	.
=52-	=52-	=52-	=52-	=52-	=52-	=52-	=52-	=52-
!	!	!	!LO:TX:t=P:problem=mixed beam	!	!	!	!	!
4BB-y/	.	.	8BB-\L	.	8dd\L	.	8dd\L	.
.	.	.	8B-\	.	8dd\	.	8b-y\J	.
4C/	6	.	8c\	.	8ee\	.	16a/LL	.
.	.	.	.	.	.	.	16b-/	.
.	.	.	8C/J	.	8ee\J	.	16a/	.
.	.	.	.	.	.	.	16g/JJ	.
!	!	!	!LO:TX:t=P:problem=mixed beam	!	!	!	!LO:TX:t=P:problem=mixed beam	!
4D/	.	.	8D\L	.	8ffny\L	.	8f/L	.
.	.	.	8DD/	.	8dd\J	.	8ff\	.
4E\	6	.	8EE/	.	16cc\LL	.	8gg\	.
.	.	.	.	.	16dd\	.	.	.
!	!	!	!LO:TX:t=P:problem=kreska pseudotaktowa	!	!	!	!LO:TX:t=P:problem=kreska pseudotaktowa	!
.	.	.	8E\J	.	16cc\	.	8gg\J	.
!	!	!	!	!	!LO:TX:t=P:problem=kreska pseudotaktowa	!	!	!
.	.	.	.	.	16b-\JJ	.	.	.
*	*	*	*	*	*	*	*custos:aa	*
!	!	!	!	!	!	!	!LO:LB:g=original	!
=53-	=53-	=53-	=53-	=53-	=53-	=53-	=53-	=53-
!	!	!	!LO:TX:t=P:problem=mixed beam	!	!	!	!	!
4F\	.	.	8F\L	.	4a/	.	8aa\L	.
.	.	.	8FF/	.	.	.	8ff\	.
!	!	!	!	!	!	!	!LO:SIC:s=8bb-	!
4D/	6	.	8DD/	.	8dd\L	.	8bb-X\	.
.	.	.	8D\J	.	8dd\J	.	8ff\J	.
4E-X\	6 5	.	4E-X\	.	8cc/L	.	8ee-X\L	.
.	.	.	.	.	8b-/	.	8dd\	.
!LO:TX:t=P:problem=kreska pseudotaktowa	!	!	!LO:TX:t=P:problem=mixed beam	!	!	!	!	!
4F\	7 4	.	8F\L	.	8.b-/	.	8ee-\	.
!	!	!	!LO:TX:t=P:problem=kreska pseudotaktowa	!	!	!	!LO:TX:t=P:problem=kreska pseudotaktowa	!
.	x 3	.	8FF/J	.	.	.	8cc\J	.
.	.	.	.	.	16a/Jk	.	.	.
=54-	=54-	=54-	=54-	=54-	=54-	=54-	=54-	=54-
4BB-/	5	.	4BB-/	.	4b-/	.	8dd\L	.
.	.	.	.	.	.	.	8ff\	.
!LO:MO:mod=2B-	!	!	!	!	!	!	!	!
[4B-\	6	.	2B-\	.	4r	.	8gg\	.
.	.	.	.	.	.	.	8dd\J	.
!LO:MO:mod=.	!	!	!	!	!	!	!	!
4B-\]	x 3	.	.	.	2r	.	8ee-X\L	.
.	4 2	.	.	.	.	.	8cc\	.
4A\	x 6	.	4A,\	.	.	.	8ff\	.
!	!	!	!	!	!	!	!LO:TX:t=P:problem=kreska pseudotaktowa	!
.	.	.	.	.	.	.	8ee-\J	.
!	!	!	!	!	!LO:LB:g=original	!	!	!
=55-	=55-	=55-	=55-	=55-	=55-	=55-	=55-	=55-
4B-\	.	.	4B-\	.	8r	.	4dd\	.
.	.	.	.	.	8b-/L	.	.	.
4Eny\	6 5-	.	4r	.	8cc/	.	8g/L	.
.	.	.	.	.	8g/J	.	8cc/J	.
4F\	.	.	2r	.	8a/	.	8r	.
.	.	.	.	.	4f/	.	8ff\L	.
8BB-/L	.	.	.	.	.	.	8gg\	.
!LO:TX:t=P:problem=kreska pseudotaktowa	!	!	!	!	!LO:TX:t=P:problem=kreska pseudotaktowa	!	!LO:TX:t=P:problem=kreska pseudotaktowa	!
8C/J	.	.	.	.	8e/	.	8gg\J	.
*custos:FF	*	*	*	*	*	*	*	*
!LO:LB:g=original	!	!	!LO:LB:g=original	!	!	!	!	!
=56-	=56-	=56-	=56-	=56-	=56-	=56-	=56-	=56-
!LO:TX:t=P:problem=mixed beam	!	!	!	!	!	!	!	!
8FF/L	.	.	8r	.	8f/L	.	8aa\L	.
8F\	.	.	8F\L	.	8cc/	.	8aa\J	.
8G\	.	.	8G\	.	8cc/	.	2bb-\	.
8D\J	6	.	8D\J	.	8cc/J	.	.	.
!LO:TX:t=P:problem=mixed beam	!	!	!LO:TX:t=P:problem=mixed beam	!	!	!	!	!
8E-X\L	.	.	8E-X\L	.	4.cc\	.	.	.
8C\	.	.	8C\	.	.	.	.	.
8F\	.	.	8F\	.	.	.	4aa,\	.
!	!	!	!LO:TX:t=P:problem=kreska pseudotaktowa	!	!	!	!	!
8FF/J	.	.	8FF/J	.	16b-\LL	.	.	.
!	!	!	!	!	!LO:TX:t=P:problem=kreska pseudotaktowa	!	!	!
.	.	.	.	.	16cc\JJ	.	.	.
=57-	=57-	=57-	=57-	=57-	=57-	=57-	=57-	=57-
!LO:N:vis=4	!	!	!LO:TX:t=P:problem=mixed beam	!	!	!	!	!
8BB-/	.	.	8BB-/L	.	4dd\	.	8bb-\L	.
!LO:N:vis=4	!	!	!	!	!	!	!	!
8B-\	.	.	8B-\	.	.	.	8dd\	.
4c\	-	.	8c\	.	4r	.	8ee-X\	.
.	.	.	8c\J	.	.	.	8ee-\J	.
!LO:TX:t=P:problem=mixed beam	!	!	!LO:TX:t=P:problem=mixed beam	!	!	!	!	!
8d\L	.	.	8d\L	.	8r	.	8ff\L	.
8D/J	.	.	8D/	.	8f/L	.	8dd\J	.
!LO:TX:t=P:problem=kreska pseudotaktowa	!	!	!	!	!	!	!	!
4E-X\	.	.	8E-X/	.	8g/	.	16cc\LL	.
.	.	.	.	.	.	.	16dd\	.
!	!	!	!LO:TX:t=P:problem=kreska pseudotaktowa	!	!LO:TX:t=P:problem=kreska pseudotaktowa	!	!	!
.	.	.	8E-/J	.	8g/J	.	16cc\	.
!	!	!	!	!	!	!	!LO:TX:t=P:problem=kreska pseudotaktowa	!
.	.	.	.	.	.	.	16b-\JJ	.
=58-	=58-	=58-	=58-	=58-	=58-	=58-	=58-	=58-
4F\	.	.	16F\LL	.	8a\L	.	8a/L	.
.	.	.	16G\	.	.	.	.	.
.	.	.	16F\	.	8cc\	.	8a/	.
!	!	!	!LO:SIC:v:s=16E-\JJ	!	!	!	!	!
.	.	.	16Eny\JJ	.	.	.	.	.
!	!	!	!	!	!	!	!LO:N:acc=#	!
4D/	6\	.	8.D/L	.	8dd\	.	8bn/	.
.	.	.	.	.	8dd\J	.	8b/J	.
.	.	.	16D/Jk	.	.	.	.	.
!	!	!	!LO:TX:t=P:problem=mixed beam	!	!	!	!	!
4C/	-	.	8C/L	.	8ee-X\L	.	8cc\L	.
.	.	.	8c\	.	8cc\J	.	8ee-X\	.
4D/	6	.	8d\	.	16b-/LL	.	8ff\	.
.	.	.	.	.	16cc/	.	.	.
!	!	!	!LO:TX:t=P:problem=kreska pseudotaktowa	!	!	!	!LO:TX:t=P:problem=kreska pseudotaktowa	!
.	.	.	8D/J	.	16b-/	.	8ff\J	.
!	!	!	!	!	!LO:TX:t=P:problem=kreska pseudotaktowa	!	!	!
.	.	.	.	.	16a/JJ	.	.	.
*	*	*	*	*	*	*	*custos:gg	*
!	!	!	!	!	!	!	!LO:LB:g=original	!
=59-	=59-	=59-	=59-	=59-	=59-	=59-	=59-	=59-
!	!	!	!LO:TX:t=P:problem=mixed beam	!	!LO:TX:t=P:problem=mixed beam	!	!	!
4E-X\	.	.	8E-X\L	.	8g\L	.	8gg\L	.
.	.	.	8EE-X/	.	8ee-X\J	.	8gg\	.
4F\	6	.	8FF/	.	16dd\LL	.	8aa\	.
!	!	!	!	!	!LO:SIC:s=16ee-	!	!	!
!	!	!	!	!	!LO:TX:t=P:problem=♭ above	!	!	!
.	.	.	.	.	16ee-X\	.	.	.
.	.	.	8F\J	.	16dd\	.	8aa\J	.
.	.	.	.	.	16cc\JJ	.	.	.
!	!	!	!LO:TX:t=P:problem=mixed beam	!	!	!	!	!
4G\	.	.	8G\L	.	8b-/L	.	8bb-\L	.
.	.	.	8GG/	.	8b-\J	.	8gg\J	.
!LO:TX:t=P:problem=kreska pseudotaktowa	!	!	!	!	!LO:TX:t=P:problem=kreska pseudotaktowa	!	!	!
4A\	6	.	8AA/	.	4cc\	.	16ff\LL	.
.	.	.	.	.	.	.	16gg\	.
!	!	!	!LO:TX:t=P:problem=kreska pseudotaktowa	!	!	!	!	!
.	.	.	8A\J	.	.	.	16ff\	.
!	!	!	!	!	!	!	!LO:TX:t=P:problem=kreska pseudotaktowa	!
!	!	!	!	!	!	!	!LO:SIC:v:s=16ee-\JJ	!
.	.	.	.	.	.	.	16eeny\JJ	.
=60-	=60-	=60-	=60-	=60-	=60-	=60-	=60-	=60-
!LO:TX:t=P:problem=mixed beam	!	!	!LO:TX:t=P:problem=mixed beam	!	!	!	!	!
8B-\L	.	.	8B-\L	.	8f/L	.	8dd\L	.
8BB-/J	.	.	8BB-/	.	8b-/J	.	8dd\J	.
4C/	6	.	8C/	.	16a/LL	.	16cc\LL	.
.	.	.	.	.	16b-/	.	16dd\	.
.	.	.	8C/J	.	16a/	.	16cc\	.
.	.	.	.	.	16g/JJ	.	16b-y\JJ	.
8D/L	.	.	8D/L	.	8f#X/	.	4.a/	.
8C/J	.	.	8C/J	.	4g/	.	.	.
!	!	!	!LO:TX:t=P:problem=kreska pseudotaktowa	!	!	!	!	!
4D/	4	.	4D/	.	.	.	.	.
!	!	!	!	!	!LO:TX:t=P:problem=kreska pseudotaktowa	!	!LO:TX:t=P:problem=kreska pseudotaktowa	!
.	3	.	.	.	8f#/	.	8a/	.
=61-	=61-	=61-	=61-	=61-	=61-	=61-	=61-	=61-
!	!	!	!	!	!LO:TX:t=P:problem=mixed beam	!	!LO:TX:t=P:problem=mixed beam	!
4G\	.	.	8G\L	.	8g/L	.	8b-/L	.
.	.	.	8G\	.	8gg\J	.	8bb-\J	.
4A\	.	.	8A\	.	16ff\LL	.	16aa\LL	.
.	.	.	.	.	16gg\	.	16bb-\	.
.	.	.	8A\J	.	16ff\	.	16aa\	.
.	.	.	.	.	16eeny\JJ	.	16gg\JJ	.
4B-\	6	.	8B-\L	.	8dd\L	.	8ff\L	.
.	.	.	8B-\J	.	8dd\	.	8ff\	.
8.A\L	.	.	16A\LL	.	8ee\	.	8gg\	.
.	.	.	16B-\	.	.	.	.	.
!	!	!	!	!	!	!	!LO:TX:t=P:problem=kreska pseudotaktowa	!
.	.	.	16A\	.	8ee\J	.	8gg\J	.
!LO:TX:t=P:problem=kreska pseudotaktowa	!	!	!	!	!	!	!	!
16G\Jk	.	.	16G\JJ	.	.	.	.	.
*	*	*	*custos:F	*	*custos:ff	*	*	*
!	!	!	!LO:LB:g=original	!	!LO:LB:g=original	!	!	!
=62-	=62-	=62-	=62-	=62-	=62-	=62-	=62-	=62-
!LO:TX:t=P:problem=mixed beam	!	!	!LO:TX:t=P:problem=mixed beam	!	!	!	!	!
8F\L	.	.	8F\L	.	8ff\L	.	4aa\	.
8FF/J	.	.	8FF/	.	8a\	.	.	.
!	!	!	!	!	!LO:N:acc=#	!	!	!
4GG/	#	.	8GG/	.	8bn\	.	4r	.
.	.	.	8GG/J	.	8b\J	.	.	.
!LO:TX:t=P:problem=mixed beam	!	!	!LO:TX:t=P:problem=mixed beam	!	!	!	!	!
8AA/L	.	.	8AA/L	.	8cc\L	.	8r	.
8A\	.	.	8A\J	.	8cc\	.	8ee\L	.
8.G\	.	.	16G\LL	.	8dd\	.	8ff\	.
.	.	.	16A\	.	.	.	.	.
!	!	!	!	!	!LO:TX:t=P:problem=kreska pseudotaktowa	!	!LO:TX:t=P:problem=kreska pseudotaktowa	!
.	.	.	16G\	.	8dd\J	.	8ff\J	.
!	!	!	!LO:TX:t=P:problem=kreska pseudotaktowa	!	!	!	!	!
16F\Jk	.	.	16F\JJ	.	.	.	.	.
=63-	=63-	=63-	=63-	=63-	=63-	=63-	=63-	=63-
!LO:TX:t=P:problem=mixed beam	!	!	!LO:TX:t=P:problem=mixed beam	!	!	!	!	!
8Eny\L	.	.	8Eny\L	.	8ee\L	.	8gg\L	.
8EE/J	.	.	8EEny/	.	8ee\J	.	8gg\J	.
4FF/	-6	.	8FF/	.	16dd\LL	.	16ff\LL	.
.	.	.	.	.	16ee\	.	16gg\	.
.	.	.	8FF/J	.	16dd\	.	16ff\	.
.	.	.	.	.	16cc\JJ	.	16ee\JJ	.
!	!	!	!	!	!LO:SIC:s=8bL	!	!	!
!LO:TX:t=P:problem=mixed beam	!	!	!LO:TX:t=P:problem=mixed beam	!	!	!	!	!
8GG/L	#	.	8GG/L	.	8b-y/L	.	8dd\L	.
!	!	!	!	!	!LO:SIC:s=8b	!	!	!
!	!	!	!	!	!LO:N:acc=#	!	!	!
8G\	.	.	8G\J	.	8bn/	.	8dd\	.
8.F\	.	.	16F\LL	.	8cc/	.	8ee\	.
.	.	.	16G\	.	.	.	.	.
!	!	!	!	!	!LO:TX:t=P:problem=kreska pseudotaktowa	!	!LO:TX:t=P:problem=kreska pseudotaktowa	!
.	.	.	16F\	.	8cc/J	.	8ee\J	.
!	!	!	!LO:TX:t=P:problem=kreska pseudotaktowa	!	!	!	!	!
16E\Jk	.	.	16E\JJ	.	.	.	.	.
*custos:D	*	*	*	*	*	*	*	*
!LO:LB:g=original	!	!	!	!	!	!	!	!
=64-	=64-	=64-	=64-	=64-	=64-	=64-	=64-	=64-
4.D/	.	.	4.D/	.	16dd\LL	.	16ff\LL	.
.	.	.	.	.	16ee\	.	16gg\	.
.	.	.	.	.	16dd\	.	16ff\	.
.	.	.	.	.	16ee\JJ	.	16gg\JJ	.
.	.	.	.	.	16ff\LL	.	16aa\LL	.
.	.	.	.	.	16gg\	.	16bb-\	.
8D/	.	.	8D/	.	16ff\	.	16aa\	.
.	.	.	.	.	16gg\JJ	.	16bb-\JJ	.
8AA/L	6	.	8AA/L	.	8aa\	.	8ccc\L	.
8BB-/	.	.	8BB-/	.	4ff\	.	16bb-\L	.
.	.	.	.	.	.	.	16aa\JJ	.
8C/	4	.	8C/	.	.	.	8.gg\L	.
!	!	!	!LO:TX:t=P:problem=kreska pseudotaktowa	!	!LO:TX:t=P:problem=kreska pseudotaktowa	!	!	!
8CC/J	3	.	8CC/J	.	8ee\	.	.	.
!	!	!	!	!	!	!	!LO:TX:t=P:problem=kreska pseudotaktowa	!
.	.	.	.	.	.	.	16gg\Jk	.
*	*	*	*	*	*	*	*custos:aa	*
!	!	!	!	!	!	!	!LO:LB:g=original	!
=65-	=65-	=65-	=65-	=65-	=65-	=65-	=65-	=65-
4FF/	.	.	4FF/	.	4ff\	.	8aa\L	.
.	.	.	.	.	.	.	8cc\	.
2F\	6	.	2F\	.	4r	.	8dd\	.
.	.	.	.	.	.	.	8a\J	.
.	4- 2	.	.	.	2r	.	8b-/L	.
.	.	.	.	.	.	.	8g/	.
!LO:TX:t=P:problem=kreska pseudotaktowa	!	!	!LO:TX:t=P:problem=kreska pseudotaktowa	!	!	!	!	!
4E\	6	.	4E\	.	.	.	8cc/	.
!	!	!	!	!	!	!	!LO:TX:t=P:problem=kreska pseudotaktowa	!
.	.	.	.	.	.	.	8b-/J	.
=66-	=66-	=66-	=66-	=66-	=66-	=66-	=66-	=66-
4F\	.	.	4F\	.	8r	.	8a/L	.
.	.	.	.	.	8ff\L	.	8f/	.
!LO:N:acc=#	!	!	!	!	!	!	!	!
4BBn/	6 5-	.	4r	.	8gg\	.	8d/	.
.	.	.	.	.	8dd\J	.	8g/J	.
4C/	-	.	2r	.	8ee-X\	.	8r	.
.	.	.	.	.	4cc\	.	8cc\L	.
8F\L	.	.	.	.	.	.	8dd\	.
!	!	!	!	!	!LO:TX:t=P:problem=kreska pseudotaktowa	!	!	!
!	!	!	!	!	!LO:N:acc=#	!	!LO:TX:t=P:problem=kreska pseudotaktowa	!
8G\J	#	.	.	.	8bn/	.	8dd\J	.
=67-	=67-	=67-	=67-	=67-	=67-	=67-	=67-	=67-
4C/	.	.	8r	.	8cc\L	.	8ee\L	.
.	.	.	8C/L	.	8gg\	.	8ee\	.
8D/L	.	.	8D/	.	8gg\	.	8ff\	.
8AA/J	6	.	8AA/J	.	8gg\J	.	8ff\J	.
8BB-y/L	6 5	.	8BB-/L	.	4.gg\	.	4ff\	.
8GG/	.	.	8GG/J	.	.	.	.	.
!	!	!	!	!	!	!	!LO:TX:t=P:problem=kreska pseudotaktowa	!
8C/	4	.	8C/L	.	.	.	4ee\	.
!LO:TX:t=P:problem=kreska pseudotaktowa	!	!	!LO:TX:t=P:problem=kreska pseudotaktowa	!	!	!	!	!
8CC/J	3	.	8CC/J	.	16ff\LL	.	.	.
!	!	!	!	!	!LO:TX:t=P:problem=kreska pseudotaktowa	!	!	!
.	.	.	.	.	16gg\JJ	.	.	.
*	*	*	*custos:FF	*	*	*	*	*
!	!	!	!LO:LB:g=original	!	!	!	!	!
=68-	=68-	=68-	=68-	=68-	=68-	=68-	=68-	=68-
!LO:TX:t=P:problem=mixed beam	!	!	!LO:TX:t=P:problem=mixed beam	!	!	!	!LO:TX:t=P:problem=mixed beam	!
8FF/L	.	.	8FF/L	.	4aa\	.	8ff\L	.
8F\J	.	.	8F\	.	.	.	8a/	.
4G\	.	.	8G\	.	4r	.	8b-/	.
.	.	.	8G\J	.	.	.	8b-/J	.
!LO:TX:t=P:problem=mixed beam	!	!	!LO:TX:t=P:problem=mixed beam	!	!	!	!	!
8A\L	.	.	8A\L	.	8r	.	8cc\L	.
8AA/J	.	.	8AA/	.	8cc\L	.	8a\J	.
!LO:N:acc=#	!	!	!LO:N:acc=#	!	!	!	!	!
4BBn/	6	.	8BBn/	.	8dd\	.	16g/LL	.
.	.	.	.	.	.	.	16a/	.
!	!	!	!LO:TX:t=P:problem=kreska pseudotaktowa	!	!	!	!	!
.	.	.	8BB/J	.	8dd\J	.	16g/	.
!	!	!	!	!	!	!	!LO:TX:t=P:problem=kreska pseudotaktowa	!
.	.	.	.	.	.	.	16f/JJ	.
*	*	*	*	*	*custos:ee	*	*	*
!	!	!	!	!	!LO:LB:g=original	!	!	!
=69-	=69-	=69-	=69-	=69-	=69-	=69-	=69-	=69-
!	!	!	!	!	!	!	!LO:TX:t=P:problem=mixed beam	!
4C/	.	.	16C/LL	.	8eeny\L	.	8e/L	.
.	.	.	16D/	.	.	.	.	.
.	.	.	16C/	.	16ff\L	.	8ee\	.
.	.	.	16BB-y/JJ	.	16gg\JJ	.	.	.
!	!	!	!	!	!	!	!LO:TX:t=P:problem=# above	!
4AA/	6\	.	8.AA/L	.	8aa\L	.	8ff#X\	.
.	.	.	.	.	8aa\J	.	8ff#\J	.
.	.	.	16AA/Jk	.	.	.	.	.
!	!	!	!LO:TX:t=P:problem=mixed beam	!	!	!	!LO:TX:t=P:problem=mixed beam	!
4GG/	.	.	8GG/L	.	8bb-\L	.	8gg\L	.
.	.	.	8G\	.	8gg\J	.	8b-/	.
!LO:TX:t=P:problem=kreska pseudotaktowa	!	!	!	!	!	!	!	!
4AA/	6	.	8A\	.	16ff\LL	.	8cc/	.
.	.	.	.	.	16gg\	.	.	.
!	!	!	!LO:TX:t=P:problem=kreska pseudotaktowa	!	!	!	!LO:TX:t=P:problem=kreska pseudotaktowa	!
.	.	.	8AA/J	.	16ff\	.	8cc/J	.
!	!	!	!	!	!LO:TX:t=P:problem=kreska pseudotaktowa	!	!	!
.	.	.	.	.	16ee\JJ	.	.	.
=70-	=70-	=70-	=70-	=70-	=70-	=70-	=70-	=70-
!	!	!	!LO:TX:t=P:problem=mixed beam	!	!	!	!	!
4BB-y/	.	.	8BB-/L	.	8dd\L	.	8dd\L	.
.	.	.	8B-\	.	8b-y\J	.	8dd\	.
4C/	6	.	8c\	.	16a/LL	.	8ee\	.
.	.	.	.	.	16b-/	.	.	.
.	.	.	8C/J	.	16a/	.	8ee\J	.
.	.	.	.	.	16g/JJ	.	.	.
!	!	!	!LO:TX:t=P:problem=mixed beam	!	!LO:TX:t=P:problem=mixed beam	!	!	!
4D/	.	.	8D/L	.	8fny/L	.	8ffny\L	.
.	.	.	8DD/	.	8ff\	.	8dd\J	.
4E\	6	.	8EE/	.	8gg\	.	16cc\LL	.
.	.	.	.	.	.	.	16dd\	.
!	!	!	!LO:TX:t=P:problem=kreska pseudotaktowa	!	!LO:TX:t=P:problem=kreska pseudotaktowa	!	!	!
.	.	.	8E\J	.	8gg\J	.	16cc\	.
.	.	.	.	.	.	.	16b-\JJ	.
*	*	*	*	*	*	*	*custos:a	*
!	!	!	!	!	!	!	!LO:LB:g=original	!
=71-	=71-	=71-	=71-	=71-	=71-	=71-	=71-	=71-
!	!	!	!LO:TX:t=P:problem=mixed beam	!	!	!	!	!
4F\	.	.	8F\L	.	8aa\L	.	4a/	.
.	.	.	8FF/	.	8ff\	.	.	.
4D/	6	.	8DD/	.	8bb-\	.	8dd\L	.
.	.	.	8D\J	.	8ff\J	.	8dd\J	.
4E-X\	6 5	.	4E-X\	.	8ee-X\L	.	8cc\L	.
.	.	.	.	.	8dd\	.	8b-\	.
!LO:TX:t=P:problem=kreska pseudotaktowa	!	!	!LO:TX:t=P:problem=kreska pseudotaktowa	!	!	!	!	!
4F\	4	.	4F\	.	8ee-\	.	8.b-\	.
!	!	!	!	!	!LO:TX:t=P:problem=kreska pseudotaktowa	!	!	!
.	3	.	.	.	8cc\J	.	.	.
!	!	!	!	!	!	!	!LO:TX:t=P:problem=kreska pseudotaktowa	!
.	.	.	.	.	.	.	16a\Jk	.
*custos:B	*	*	*custos:B	*	*	*	*	*
!LO:LB:g=original	!	!	!LO:LB:g=original	!	!	!	!	!
=72-	=72-	=72-	=72-	=72-	=72-	=72-	=72-	=72-
!LO:TX:t=P:problem=mixed beam	!	!	!LO:TX:t=P:problem=mixed beam	!	!	!	!	!
8B-\L	.	.	8B-\L	.	8dd\L	.	8b-/L	.
8BB-/J	.	.	8BB-/	.	8dd\J	.	8b-/J	.
4C/	6	.	8C/	.	16cc\LL	.	16a/LL	.
.	.	.	.	.	16dd\	.	16b-/	.
.	.	.	8C/J	.	16cc\	.	16a/	.
.	.	.	.	.	16b-\JJ	.	16g/JJ	.
4D/	.	.	8D/L	.	8a/L	.	8f/L	.
.	.	.	8D/J	.	8a/	.	8f/	.
8.C/L	.	.	16C/LL	.	8b-/	.	8g/	.
.	.	.	16D/	.	.	.	.	.
!	!	!	!	!	!LO:TX:t=P:problem=kreska pseudotaktowa	!	!LO:TX:t=P:problem=kreska pseudotaktowa	!
.	.	.	16C/	.	8b-/J	.	8g/J	.
!LO:TX:t=P:problem=kreska pseudotaktowa	!	!	!LO:TX:t=P:problem=kreska pseudotaktowa	!	!	!	!	!
16BB-/Jk	.	.	16BB-/JJ	.	.	.	.	.
=73-	=73-	=73-	=73-	=73-	=73-	=73-	=73-	=73-
2AA/	6	.	4.AA/	.	8cc/L	.	8a/L	.
.	.	.	.	.	8b-/	.	8g/	.
.	.	.	.	.	8a/	.	8f/	.
.	.	.	8AA/	.	8g/J	.	8e/J	.
4BB-/	.	.	8BB-/L	.	4f/	.	4d/	.
.	.	.	8BB-/J	.	.	.	.	.
!	!	!	!	!	!LO:TX:t=P:problem=kreska pseudotaktowa	!	!	!
4GG/	.	.	8GG/L	.	[4b-/	.	8g/L	.
!	!	!	!	!	!	!	!LO:TX:t=P:problem=kreska pseudotaktowa	!
.	.	.	16AA/L	.	.	.	8f/J	.
!	!	!	!LO:TX:t=P:problem=kreska pseudotaktowa	!	!	!	!	!
.	.	.	16BB-/JJ	.	.	.	.	.
=74-	=74-	=74-	=74-	=74-	=74-	=74-	=74-	=74-
2C/	7 3	.	1C/	.	4b-/]	.	4e/	.
.	6 4	.	.	.	4a/	.	2f/	.
2C/	5 4	.	.	.	4.g/	.	.	.
.	X 3	.	.	.	.	.	4e/	.
.	.	.	.	.	8g/	.	.	.
=75-	=75-	=75-	=75-	=75-	=75-	=75-	=75-	=75-
!LO:SIC:s=1FF;	!	!	!LO:SIC:s=1FF;	!	!	!	!	!
1FF/	.	.	1FF/	.	1a/;	.	1f/;	.
*	*	*	*	*	*custos:a	*	*custos:cc	*
!	!	!	!	!	!LO:TX:b:i:t=Verte:rj:mod=	!	!LO:TX:b:i:t=Verte:rj:mod=	!
!	!	!	!	!	!LO:PB:g=original	!	!LO:PB:g=original	!
=76||	=76||	=76||	=76||	=76||	=76||	=76||	=76||	=76||
!!!OMD:
!!!OMD-mod: Adagio
!LO:TX:b:Bi:t=adagio:mod=	!	!	!LO:TX:a:t=4:mod=	!	!LO:TX:a:t=4:mod=	!	!	!
!	!	!	!LO:SIC:s=00r	!	!LO:SIC:s=00r	!	!	!
2F\	.	.	00r;	.	00r;	.	16r	.
.	.	.	.	.	.	.	16cc\LL	.
.	.	.	.	.	.	.	16dd\	.
.	.	.	.	.	.	.	16ee\JJ	.
.	.	.	.	.	.	.	16ff\LL	.
.	.	.	.	.	.	.	16gg\	.
.	.	.	.	.	.	.	16aa\	.
.	.	.	.	.	.	.	16bb-\JJ	.
2E\	6	.	.	.	.	.	[4ccc\	.
.	.	.	.	.	.	.	32ccc\LLL]	.
.	.	.	.	.	.	.	32bb-\	.
.	.	.	.	.	.	.	32aa\	.
.	.	.	.	.	.	.	32gg\	.
.	.	.	.	.	.	.	32ff\	.
.	.	.	.	.	.	.	32ee\	.
.	.	.	.	.	.	.	32dd\	.
!	!	!	!	!	!	!	!LO:TX:t=P:problem=kreska pseudotaktowa	!
.	.	.	.	.	.	.	32cc\JJJ	.
=77-	=77-	=77-	=77-	=77-	=77-	=77-	=77-	=77-
!	!	!	!	!	!	!	!LO:SIC:s=[4bb-	!
2D/	-6	.	.	.	.	.	[4bb-X\	.
.	.	.	.	.	.	.	32bb-\LLL]	.
.	.	.	.	.	.	.	32aa\	.
.	.	.	.	.	.	.	32gg\	.
.	.	.	.	.	.	.	32ff\	.
.	.	.	.	.	.	.	32ee\	.
.	.	.	.	.	.	.	32dd\	.
.	.	.	.	.	.	.	32cc\	.
.	.	.	.	.	.	.	32b-\JJJ	.
!LO:TX:t=P:problem=kreska pseudotaktowa	!	!	!	!	!	!	!	!
!LO:N:acc=#	!	!	!	!	!	!	!	!
2BBn/	6 5	.	.	.	.	.	[4gg\	.
.	.	.	.	.	.	.	32gg\LLL]	.
.	.	.	.	.	.	.	32ff\	.
.	.	.	.	.	.	.	32ee\	.
.	.	.	.	.	.	.	32dd\	.
.	.	.	.	.	.	.	32cc\	.
!	!	!	!	!	!	!	!LO:N:acc=#	!
.	.	.	.	.	.	.	32bn\	.
.	.	.	.	.	.	.	32a\	.
!	!	!	!	!	!	!	!LO:TX:t=P:problem=kreska pseudotaktowa	!
.	.	.	.	.	.	.	32g\JJJ	.
=78-	=78-	=78-	=78-	=78-	=78-	=78-	=78-	=78-
2C/	.	.	.	.	.	.	[4ee\	.
.	.	.	.	.	.	.	16ee\LL]	.
.	.	.	.	.	.	.	16ee\	.
.	.	.	.	.	.	.	16ff\	.
.	.	.	.	.	.	.	16gg\JJ	.
2AA/	7 3-	.	.	.	.	.	[4cc\	.
.	.	.	.	.	.	.	16cc\LL]	.
.	.	.	.	.	.	.	16cc\	.
.	.	.	.	.	.	.	16dd\	.
!	!	!	!	!	!	!	!LO:TX:t=P:problem=kreska pseudotaktowa	!
.	.	.	.	.	.	.	16ee\JJ	.
=79-	=79-	=79-	=79-	=79-	=79-	=79-	=79-	=79-
2AA/	6\	.	.	.	.	.	[4a/	.
.	.	.	.	.	.	.	32a\LLL]	.
!	!	!	!	!	!	!	!LO:TX:t=P:problem= # above	!
!	!	!	!	!	!	!	!LO:N:acc=#	!
.	.	.	.	.	.	.	32bn\	.
.	.	.	.	.	.	.	32cc\	.
.	.	.	.	.	.	.	32dd\	.
.	.	.	.	.	.	.	32ee\	.
!	!	!	!	!	!	!	!LO:TX:t=P:problem= # above	!
.	.	.	.	.	.	.	32ff#X\	.
.	.	.	.	.	.	.	32gg\	.
.	.	.	.	.	.	.	32aa\JJJ	.
!LO:SIC:s=2GG;	!	!	!	!	!	!	!	!
!LO:TX:t=P:problem=kreska pseudotaktowa	!	!	!	!	!	!	!LO:N:acc=#	!
2GG/	#	.	.	.	.	.	2bbn;\	.
!LO:LB:g=original	!	!	!	!	!	!	!	!
=80-	=80-	=80-	=80-	=80-	=80-	=80-	=80-	=80-
!!!OMD:
!!!OMD-mod: Allegro
*M12/8	*	*	*M12/8	*	*M12/8	*	*M12/8	*
!	!	!	!LO:SIC:s=00.r	!	!LO:SIC:s=00.r	!	!LO:N:acc=#	!
!LO:TX:b:Bi:t=allegro:mod=	!	!	!LO:TX:a:t=8:mod=	!	!LO:TX:a:t=8:mod=	!	!LO:TX:b:Bi:t=allegro:mod=	!
2.G\	#	.	00.r;	.	00.r;	.	8bn\L	.
.	.	.	.	.	.	.	8cc\	.
.	.	.	.	.	.	.	8dd\J	.
.	.	.	.	.	.	.	8g/L	.
.	.	.	.	.	.	.	8a/	.
!	!	!	!	!	!	!	!LO:N:acc=#	!
.	.	.	.	.	.	.	8bn/J	.
!	!	!	!	!	!	!	!LO:LB:g=original	!
2.E\	6 5-	.	.	.	.	.	8cc\L	.
.	.	.	.	.	.	.	8dd\	.
.	.	.	.	.	.	.	8ee\J	.
.	.	.	.	.	.	.	8g/L	.
.	.	.	.	.	.	.	8a/	.
!	!	!	!	!	!	!	!LO:TX:t=P:problem=kreska pseudotaktowa	!
.	.	.	.	.	.	.	8b-y/J	.
=81-	=81-	=81-	=81-	=81-	=81-	=81-	=81-	=81-
2.F\	.	.	.	.	.	.	8a/L	.
.	.	.	.	.	.	.	8b-/	.
.	.	.	.	.	.	.	8cc/J	.
.	.	.	.	.	.	.	8f/L	.
.	.	.	.	.	.	.	8g/	.
.	.	.	.	.	.	.	8a/J	.
!LO:TX:t=P:problem=kreska pseudotaktowa	!	!	!	!	!	!	!	!
2.D/	6	.	.	.	.	.	8dd\L	.
.	.	.	.	.	.	.	8ee\	.
.	.	.	.	.	.	.	8ffny\J	.
.	.	.	.	.	.	.	8b-\L	.
.	.	.	.	.	.	.	8cc\	.
!	!	!	!	!	!	!	!LO:TX:t=P:problem=kreska pseudotaktowa	!
.	.	.	.	.	.	.	8dd\J	.
=82-	=82-	=82-	=82-	=82-	=82-	=82-	=82-	=82-
2.C/	7 6	.	.	.	.	.	8ee-X\L	.
.	.	.	.	.	.	.	8ff\	.
.	.	.	.	.	.	.	8gg\J	.
.	.	.	.	.	.	.	8cc\L	.
.	.	.	.	.	.	.	8dd\	.
!	!	!	!	!	!	!	!LO:TX:t=P:problem=♭ above	!
.	.	.	.	.	.	.	8ee-X\J	.
2.C/	#6	.	.	.	.	.	8a/L	.
.	.	.	.	.	.	.	8b-/	.
.	.	.	.	.	.	.	8cc/J	.
.	.	.	.	.	.	.	8f/L	.
.	.	.	.	.	.	.	8g/	.
!	!	!	!	!	!	!	!LO:TX:t=P:problem=kreska pseudotaktowa	!
.	.	.	.	.	.	.	8a/J	.
=83-	=83-	=83-	=83-	=83-	=83-	=83-	=83-	=83-
2.BB-y/	.	.	.	.	.	.	8b-\L	.
.	.	.	.	.	.	.	8cc\	.
.	.	.	.	.	.	.	8dd\J	.
.	.	.	.	.	.	.	8gg\L	.
.	.	.	.	.	.	.	8aa\	.
.	.	.	.	.	.	.	8bb-y\J	.
!LO:TX:t=P:problem=kreska pseudotaktowa	!	!	!	!	!	!	!	!
2.C/	.	.	.	.	.	.	8enye\L	.
.	.	.	.	.	.	.	8ff\	.
.	.	.	.	.	.	.	8gg\J	.
.	.	.	.	.	.	.	8cc\L	.
.	.	.	.	.	.	.	8dd\	.
!	!	!	!	!	!	!	!LO:TX:t=P:problem=kreska pseudotaktowa	!
.	.	.	.	.	.	.	8ee\J	.
=84-	=84-	=84-	=84-	=84-	=84-	=84-	=84-	=84-
2.AA/	6	.	00.r	.	00.r	.	8ff\L	.
.	.	.	.	.	.	.	8gg\	.
.	.	.	.	.	.	.	8aa\J	.
.	.	.	.	.	.	.	8cc\L	.
.	.	.	.	.	.	.	8dd\	.
!	!	!	!	!	!	!	!LO:TX:t=P:problem=♭ above	!
.	.	.	.	.	.	.	8ee-X\J	.
2.BB-/	5	.	.	.	.	.	8dd\L	.
.	.	.	.	.	.	.	8ee-\	.
.	.	.	.	.	.	.	8ff\J	.
.	.	.	.	.	.	.	8b-/L	.
.	.	.	.	.	.	.	8cc/	.
.	.	.	.	.	.	.	8dd/J	.
*	*	*	*	*	*	*	*custos:g	*
!	!	!	!	!	!	!	!LO:LB:g=original	!
=85-	=85-	=85-	=85-	=85-	=85-	=85-	=85-	=85-
2.BB-/	6	.	.	.	.	.	8g/L	.
.	.	.	.	.	.	.	8a/	.
.	.	.	.	.	.	.	8b-/J	.
.	.	.	.	.	.	.	8d/L	.
.	.	.	.	.	.	.	8e/	.
.	.	.	.	.	.	.	8f/J	.
!LO:TX:t=P:problem=kreska pseudotaktowa	!	!	!	!	!	!	!	!
2.BB-/	6 4+ 2	.	.	.	.	.	8e/L	.
.	.	.	.	.	.	.	8f/	.
.	.	.	.	.	.	.	8g/J	.
.	.	.	.	.	.	.	8c/L	.
.	.	.	.	.	.	.	8d/	.
!	!	!	!	!	!	!	!LO:TX:t=P:problem=kreska pseudotaktowa	!
.	.	.	.	.	.	.	8e/J	.
=86-	=86-	=86-	=86-	=86-	=86-	=86-	=86-	=86-
2.AA/	6	.	.	.	.	.	8a/L	.
.	.	.	.	.	.	.	8b-/	.
.	.	.	.	.	.	.	8cc/J	.
.	.	.	.	.	.	.	8f/L	.
.	.	.	.	.	.	.	8g/	.
.	.	.	.	.	.	.	8a/J	.
2.GG/	7	.	.	.	.	.	8b-\L	.
.	.	.	.	.	.	.	8cc\	.
.	.	.	.	.	.	.	8dd\J	.
.	6	.	.	.	.	.	8g/L	.
.	.	.	.	.	.	.	8a/	.
!	!	!	!	!	!	!	!LO:TX:t=P:problem=kreska pseudotaktowa	!
.	.	.	.	.	.	.	8b-/J	.
=87-	=87-	=87-	=87-	=87-	=87-	=87-	=87-	=87-
2.GG/	6	.	.	.	.	.	8e/L	.
.	.	.	.	.	.	.	8f/	.
.	.	.	.	.	.	.	8g/J	.
.	.	.	.	.	.	.	8c/L	.
.	.	.	.	.	.	.	8d/	.
.	.	.	.	.	.	.	8e/J	.
2.FF/	.	.	.	.	.	.	8f/L	.
.	.	.	.	.	.	.	8g/	.
.	.	.	.	.	.	.	8a/J	.
.	.	.	.	.	.	.	8cc\L	.
.	.	.	.	.	.	.	8dd\	.
.	.	.	.	.	.	.	8eeny\J	.
!LO:LB:g=original	!	!	!	!	!	!	!	!
=88-	=88-	=88-	=88-	=88-	=88-	=88-	=88-	=88-
!!!OMD:
!!!OMD-mod: Adagio
*M4/4	*	*	*M4/4	*	*M4/4	*	*M4/4	*
*met(c)	*	*	*met(c)	*	*met(c)	*	*met(c)	*
*mmet(c)	*	*	*mmet(c)	*	*mmet(c)	*	*mmet(c)	*
!LO:TX:b:Bi:t=adagio:mod=	!	!	!LO:TX:a:t=5:mod=	!	!LO:TX:a:t=5:mod=	!	!LO:TX:b:Bi:t=adagio:mod=	!
!	!	!	!LO:SIC:s=00r	!	!LO:SIC:s=00r	!	!	!
2FF/	.	.	00r;	.	00r;	.	2.ff\	.
2AA/	6	.	.	.	.	.	.	.
.	.	.	.	.	.	.	4ee-X\	.
=89-	=89-	=89-	=89-	=89-	=89-	=89-	=89-	=89-
!LO:TX:t=P:problem=kreska pseudotaktowa	!	!	!	!	!	!	!	!
1BB-/	6	.	.	.	.	.	4.dd\	.
.	.	.	.	.	.	.	8cc\	.
.	.	.	.	.	.	.	4.bb-X\	.
!	!	!	!	!	!	!	!LO:TX:t=P:problem=kreska pseudotaktowa	!
.	.	.	.	.	.	.	8aa\	.
=90-	=90-	=90-	=90-	=90-	=90-	=90-	=90-	=90-
!LO:N:acc=#	!	!	!	!	!	!	!	!
1BBn/	#	.	.	.	.	.	4.gg\	.
.	.	.	.	.	.	.	8ff\	.
.	.	.	.	.	.	.	4.eeny\	.
.	.	.	.	.	.	.	8dd\	.
*	*	*	*	*	*	*	*custos:cc	*
!	!	!	!	!	!	!	!LO:LB:g=original	!
=91-	=91-	=91-	=91-	=91-	=91-	=91-	=91-	=91-
2C/	-7 5	.	.	.	.	.	[4cc\	.
.	.	.	.	.	.	.	32cc\LLL]	.
.	.	.	.	.	.	.	32dd\	.
.	.	.	.	.	.	.	32ee\	.
.	.	.	.	.	.	.	32ff\	.
.	.	.	.	.	.	.	32gg\	.
.	.	.	.	.	.	.	32aa\	.
.	.	.	.	.	.	.	32bb-\	.
.	.	.	.	.	.	.	32ccc\JJJ	.
!LO:SIC:v:s=2BB/	!	!	!	!	!	!	!LO:TX:t=P:problem=kreska pseudotaktowa	!
2AA/	4	.	.	.	.	.	2a-X/	.
.	3	.	.	.	.	.	.	.
=92-	=92-	=92-	=92-	=92-	=92-	=92-	=92-	=92-
2C/	.	.	1r	.	1r	.	4.g/	.
.	.	.	.	.	.	.	8f/	.
2FF/	.	.	.	.	.	.	2f/	.
*custos:F	*	*	*custos:F	*	*	*	*	*
!LO:TX:b:i:t=Verte:rj:mod=	!	!	!LO:TX:b:i:t=Verte:rj:mod=	!	!	!	!	!
!LO:PB:g=original	!	!	!LO:PB:g=original	!	!	!	!	!
=93||	=93||	=93||	=93||	=93||	=93||	=93||	=93||	=93||
!!!OMD:
!!!OMD-mod: Allegro
*M3/4	*	*	*M3/4	*	*M3/4	*	*M3/4	*
*met(3)	*	*	*met(3)	*	*met(3)	*	*met(3)	*
!LO:TX:b:i:t=Tutti:mod=	!	!	!	!	!	!	!LO:TX:b:i:t=Tūtti:mod=	!
!LO:TX:rj:b:Bi:t=allegro:mod=	!	!	!LO:TX:b:Bi:t=allegro:mod=	!	!LO:TX:b:Bi:t=allegro:mod=	!	!LO:TX:rj:b:Bi:t=allegro:mod=	!
4.F\	.	.	4.F\	.	4.a/	.	4.cc\	.
8G\	.	.	8G\	.	8b-/	.	8cc\	.
!LO:TX:t=P:problem=kreska pseudotaktowa	!	!	!	!	!LO:TX:t=P:problem=kreska pseudotaktowa	!	!	!
4E\	6	.	4E\	.	4g/	.	4cc\	.
=94-	=94-	=94-	=94-	=94-	=94-	=94-	=94-	=94-
4.D/	6	.	4.D/	.	4.f/	.	4.b-/	.
8E\	.	.	8E\	.	8f/	.	8b-/	.
!LO:TX:t=P:problem=kreska pseudotaktowa	!	!	!LO:TX:t=P:problem=kreska pseudotaktowa	!	!LO:TX:t=P:problem=kreska pseudotaktowa	!	!LO:TX:t=P:problem=kreska pseudotaktowa	!
4F\	.	.	4F\	.	4f/	.	4a/	.
=95-	=95-	=95-	=95-	=95-	=95-	=95-	=95-	=95-
4.E\	6	.	4.E\	.	4.g/	.	4.cc\	.
8F\	.	.	8F\	.	8a/	.	8cc\	.
!	!	!	!	!	!LO:TX:t=P:problem=kreska pseudotaktowa	!	!LO:N:acc=#	!
4D/	6\	.	4D/	.	4f/	.	4bn/	.
=96-	=96-	=96-	=96-	=96-	=96-	=96-	=96-	=96-
!LO:TX:t=P:problem=kreska pseudotaktowa	!	!	!	!	!	!	!	!
2.C/	.	.	4.C/	.	4.e/	.	2cc\	.
!	!	!	!LO:N:acc=#	!	!	!	!	!
.	.	.	8BBn/	.	8d/	.	.	.
!	!	!	!LO:TX:t=P:problem=kreska pseudotaktowa	!	!LO:TX:t=P:problem=kreska pseudotaktowa	!	!LO:TX:t=P:problem=kreska pseudotaktowa	!
.	.	.	4C/	.	4e/	.	4r	.
=97-	=97-	=97-	=97-	=97-	=97-	=97-	=97-	=97-
!	!	!	!	!	!	!	!LO:TX:a:t=1:mod=	!
4.C/	.	.	4.C/	.	4.e/	.	2.r	.
8D/	.	.	8D/	.	8f/	.	.	.
4BB-/	6	.	4BB-y/	.	4g/	.	.	.
=98-	=98-	=98-	=98-	=98-	=98-	=98-	=98-	=98-
!	!	!	!	!LO:MO:mod=!LO&colon;DY&colon;ed=brack	!	!	!	!
!	!	!	!	!null	!	!	!	!
!	!	!LO:DY:t=piano	!	!LO:MO:null:mod=p	!	!LO:DY:t=piano	!	!
4.AA/	6\	p	4.AA/	.	2f#X/	p	4.cc\	p
8BB-/	.	.	8BB-/	.	.	.	8dd\	.
!LO:TX:t=P:problem=kreska pseudotaktowa	!	!	!LO:TX:t=P:problem=kreska pseudotaktowa	!	!LO:TX:t=P:problem=kreska pseudotaktowa	!	!	!
4GG/	.	.	4GG/	.	4g/	.	4b-y/	.
=99-	=99-	=99-	=99-	=99-	=99-	=99-	=99-	=99-
4.C/	6 5	.	4.C/	.	4.g/	.	4.a/	.
8D/	.	.	8D/	.	8g/	.	8a/	.
!	!	!	!LO:TX:t=P:problem= ♭ above	!	!	!	!	!
4E-X\	.	.	4E-X\	.	4g/	.	4a/	.
=100-	=100-	=100-	=100-	=100-	=100-	=100-	=100-	=100-
!LO:TX:t=P:problem=kreska pseudotaktowa	!	!	!	!	!	!	!	!
!LO:N:vis=2	!	!	!	!	!	!	!	!
2.D/	#	.	2D/	.	4.f#X/	.	4.a/	.
.	.	.	.	.	8e/	.	8g/	.
.	.	.	4r	.	4f#/	.	4a/	.
!	!	!	!	!	!LO:LB:g=original	!	!	!
=101-	=101-	=101-	=101-	=101-	=101-	=101-	=101-	=101-
!	!	!	!	!LO:MO:mod=!LO&colon;DY&colon;ed=brack	!	!	!	!
!	!	!	!	!null	!	!	!	!
!	!	!LO:DY:t=fort&colon;	!	!LO:MO:null:mod=f	!	!	!	!
4.BB-/	.	f	4.BB-/	.	4.d/	f	4.dd\	f
8BB-/	.	.	8BB-/	.	8d/	.	8ee-X\	.
4C/	.	.	4C/	.	4e/	.	4cc\	.
*	*	*	*custos:D	*	*	*	*custos:cc	*
!	!	!	!LO:LB:g=original	!	!	!	!LO:LB:g=original	!
=102-	=102-	=102-	=102-	=102-	=102-	=102-	=102-	=102-
4.D/	7 #3	.	4.D/	.	4.f#X/	.	4.cc\	.
8D/	.	.	8D/	.	8f#/	.	8dd\	.
!	!	!	!	!	!LO:TX:t=P:problem=kreska pseudotaktowa	!	!	!
4E-X\	.	.	4E-X\	.	4g/	.	4b-/	.
*custos:C	*	*	*	*	*	*	*	*
!LO:LB:g=original	!	!	!	!	!	!	!	!
=103-	=103-	=103-	=103-	=103-	=103-	=103-	=103-	=103-
4.C/	6	.	4.C/	.	4.g/	.	4.a/	.
8C/	.	.	8C/	.	8g/	.	8b-/	.
4D/	7 #3	.	4D/	.	4f#X/	.	4cc\	.
=104-	=104-	=104-	=104-	=104-	=104-	=104-	=104-	=104-
4.GG/	.	.	4.GG/	.	2g/	.	2b-/	.
8GG/	.	.	8GG/	.	.	.	.	.
!LO:TX:t=P:problem=kreska pseudotaktowa	!	!	!	!	!LO:TX:t=P:problem=kreska pseudotaktowa	!	!LO:TX:t=P:problem=kreska pseudotaktowa	!
4AA/	.	.	4AA/	.	4r	.	4r	.
=105-	=105-	=105-	=105-	=105-	=105-	=105-	=105-	=105-
!	!	!LO:DY:t=Piano	!	!LO:DY:t=pian	!	!	!	!
4.BB-/	.	p	4.BB-/	p	4.d/	p	4.dd\	p
8BB-/	.	.	8BB-/	.	8d/	.	8ee-X\	.
!	!	!	!LO:TX:t=P:problem=kreska pseudotaktowa	!	!	!	!	!
4C/	.	.	4C/	.	4e/	.	4cc\	.
=106-	=106-	=106-	=106-	=106-	=106-	=106-	=106-	=106-
4.D/	#	.	4.D/	.	4.f#X/	.	4.cc\	.
8D/	7 3	.	8D/	.	8f#/	.	8dd\	.
!LO:TX:t=P:problem=kreska pseudotaktowa	!	!	!	!	!LO:TX:t=P:problem=kreska pseudotaktowa	!	!	!
4E-X\	.	.	4E-X\	.	4g/	.	4b-/	.
=107-	=107-	=107-	=107-	=107-	=107-	=107-	=107-	=107-
4.C/	.	.	4.C/	.	4.g/	.	4.a/	.
8C/	.	.	8C/	.	8g/	.	8b-/	.
4D/	7 #	.	4D/	.	4f#X/	.	4cc\	.
.	x 3	.	.	.	.	.	.	.
=108-	=108-	=108-	=108-	=108-	=108-	=108-	=108-	=108-
!LO:TX:t=P:problem=kreska pseudotaktowa	!	!	!	!	!	!	!	!
2.GG/	.	.	2GG/	.	4.g/	f	2b-/	.
.	.	.	.	.	8a/	.	.	.
!	!	!	!LO:TX:t=P:problem=kreska pseudotaktowa	!	!LO:TX:t=P:problem=kreska pseudotaktowa	!	!	!
.	.	.	4r	.	4fny/	.	4r	.
=109-	=109-	=109-	=109-	=109-	=109-	=109-	=109-	=109-
!	!	!LO:MO:null:mod=f	!	!	!	!	!LO:TX:a:t=2:mod=	!
4.c\	.	.	4.c\	f	4.e/	.	1.r	.
8d\	.	.	8d\	.	8f/	.	.	.
4B-\	6	.	4B-\	.	4g/	.	.	.
=110-	=110-	=110-	=110-	=110-	=110-	=110-	=110-	=110-
4.A\	.	.	4.A\	.	4.f/	.	.	.
8B-\	.	.	8B-\	.	8g/	.	.	.
!LO:TX:t=P:problem=kreska pseudotaktowa	!	!	!	!	!	!	!	!
4c\	.	.	4c\	.	4e/	.	.	.
=111-	=111-	=111-	=111-	=111-	=111-	=111-	=111-	=111-
!	!	!LO:DY:mod= :t=for&colon;	!	!	!	!	!	!
2B-\	.	f	2B-\	.	2d/	.	4.dd\	f
.	.	.	.	.	.	.	8eeny\	.
4A\	6\	.	4A\	.	4f#X/	.	4cc\	.
=112-	=112-	=112-	=112-	=112-	=112-	=112-	=112-	=112-
2G\	.	.	2G\	.	4.g/	.	4.b-/	.
.	.	.	.	.	8a/	.	8cc\	.
4G\	6	.	4G\	.	4b-/	.	4dd\	.
*custos:E	*	*	*	*	*	*	*	*
!LO:LB:g=original	!	!	!	!	!LO:LB:g=original	!	!	!
=113-	=113-	=113-	=113-	=113-	=113-	=113-	=113-	=113-
2.Eny\	6 5-	.	4.Eny\	.	2b-/	.	2cc\	.
.	.	.	8D/	.	.	.	.	.
.	.	.	4E\	.	4g/	.	4cc\	.
!	!	!	!LO:LB:g=original	!	!	!	!	!
=114-	=114-	=114-	=114-	=114-	=114-	=114-	=114-	=114-
!	!	!LO:MO:null:mod=p	!	!LO:MO:null:mod=p	!	!	!	!
4.F\	.	.	4.F\	.	4.a/	p	4cc\	.
.	.	.	.	.	.	.	4r	.
8G\	.	.	8G\	.	8b-/	.	.	.
!LO:TX:t=P:problem=kreska pseudotaktowa	!	!	!	!	!	!	!	!
4E\	.	.	4E\	.	4g/	.	4r	.
=115-	=115-	=115-	=115-	=115-	=115-	=115-	=115-	=115-
!	!	!	!	!	!	!	!	!LO:MO:mod=!LO&colon;DY&colon;ed=brack
!	!	!	!	!	!	!	!	!null
!	!	!LO:MO:mod=.	!	!	!	!	!	!LO:MO:null:mod=p
2D/	6-	p	2D/	.	2fny/	.	4.b-/	.
.	.	.	.	.	.	.	8cc\	.
!	!	!	!	!LO:MO:mod=.	!LO:TX:t=P:problem=kreska pseudotaktowa	!	!	!
4C/	6	.	4C/	p	4e/	.	4a/	.
=116-	=116-	=116-	=116-	=116-	=116-	=116-	=116-	=116-
2BB-/	6	.	2BB-/	.	4.d/	.	2g/	.
.	.	.	.	.	8e/	.	.	.
!LO:TX:t=P:problem=kreska pseudotaktowa	!	!	!LO:TX:t=P:problem=kreska pseudotaktowa	!	!	!	!	!
4AA/	6	.	4AA/	.	4c/	.	4f/	.
*	*	*	*	*	*	*	*custos:g	*
!	!	!	!	!	!	!	!LO:LB:g=original	!
=117-	=117-	=117-	=117-	=117-	=117-	=117-	=117-	=117-
2GG/	.	.	2GG/	.	4.b-/	.	4.g/	.
.	.	.	.	.	8a/	.	8f/	.
4C/	.	.	4C/	.	4g/	.	4e/	.
=118-	=118-	=118-	=118-	=118-	=118-	=118-	=118-	=118-
!LO:TX:t=P:problem=kreska pseudotaktowa	!	!LO:DY:t=f.	!LO:TX:t=P:problem=kreska pseudotaktowa	!LO:MO:null:mod=f	!	!	!	!
2.F\	.	f	2.F\	.	2a/	.	4.ff\	f
.	.	.	.	.	.	.	8gg\	.
!	!	!	!	!	!LO:TX:t=P:problem=kreska pseudotaktowa	!	!	!
.	.	.	.	.	4r	.	4ee-X\	.
=119-	=119-	=119-	=119-	=119-	=119-	=119-	=119-	=119-
!	!	!	!LO:SIC:v:s=4.B-\	!LO:DY:mod= :t=f.:rj	!LO:TX:a:t=1:mod=	!LO:MO:mod=.	!	!
4.B-\	.	.	4.c\	f	2.r	f	4.dd\	.
!	!	!	!LO:SIC:v:s=8c\	!	!	!	!	!
8c\	.	.	8d\	.	.	.	8ee-X\	.
!	!	!	!	!	!	!	!LO:TX:t=P:problem=kreska pseudotaktowa	!
4A\	6	.	4A\	.	.	.	4ff\	.
=120-	=120-	=120-	=120-	=120-	=120-	=120-	=120-	=120-
!	!	!	!	!	!	!LO:MO:null:mod=f	!	!
2G\	6-	.	2G\	.	4.b-/	.	2ee-X\	.
.	.	.	.	.	8cc\	.	.	.
!LO:TX:t=P:problem=kreska pseudotaktowa	!	!	!	!	!LO:TX:t=P:problem=kreska pseudotaktowa	!	!	!
4F\	6	.	4F\	.	4a/	.	4dd\	.
=121-	=121-	=121-	=121-	=121-	=121-	=121-	=121-	=121-
2E-X\	6	.	2E-X\	.	4.g/	.	2cc\	.
.	.	.	.	.	8a/	.	.	.
!	!	!	!LO:TX:t=P:problem=kreska pseudotaktowa	!	!	!	!LO:N:acc=#	!
4D/	6\	.	4D/	.	4f/	.	4bn/	.
=122-	=122-	=122-	=122-	=122-	=122-	=122-	=122-	=122-
4.C/	.	.	4.C/	.	2e/	.	2cc\	.
8D/	.	.	8D/	.	.	.	.	.
!LO:TX:t=P:problem=kreska pseudotaktowa	!	!	!	!	!LO:TX:t=P:problem=kreska pseudotaktowa	!	!LO:TX:t=P:problem=kreska pseudotaktowa	!
4BB-/	.	.	4BB-/	.	4r	.	4r	.
=123-	=123-	=123-	=123-	=123-	=123-	=123-	=123-	=123-
!	!	!LO:DY:P.	!	!	!	!	!	!
4.AA/	-	p	4.AA/	p	4.c/	p	4.cc\	p
8AA/	.	.	8AA/	.	8c/	.	8dd\	.
4BB-/	.	.	4BB-/	.	4d/	.	4b-y/	.
=124-	=124-	=124-	=124-	=124-	=124-	=124-	=124-	=124-
4.C/	7 3	.	4.C/	.	4.e/	.	4.b-/	.
8C/	.	.	8C/	.	8e/	.	8cc\	.
!	!	!	!	!	!LO:TX:t=P:problem=kreska pseudotaktowa	!	!	!
4D/	-	.	4D/	.	4f/	.	4a/	.
=125-	=125-	=125-	=125-	=125-	=125-	=125-	=125-	=125-
2BB-/	6 5	.	2BB-/	.	4.f/	.	4.g/	.
.	.	.	.	.	8f/	.	8a/	.
!LO:TX:t=P:problem=kreska pseudotaktowa	!	!	!	!	!	!	!	!
4C/	.	.	4C/	.	4e/	.	4b-/	.
*custos:F	*	*	*custos:F	*	*	*	*	*
!LO:LB:g=original	!	!	!LO:LB:g=original	!	!	!	!	!
=126-	=126-	=126-	=126-	=126-	=126-	=126-	=126-	=126-
4.F\	.	.	4.F\	.	2f/	.	2a/	.
8G\	.	.	8G\	.	.	.	.	.
!	!	!	!	!	!	!	!LO:TX:t=P:problem=kreska pseudotaktowa	!
4E-X\	.	.	4E-X\	.	4r	.	4r	.
!	!	!	!	!	!LO:LB:g=original	!	!	!
=127-	=127-	=127-	=127-	=127-	=127-	=127-	=127-	=127-
!	!	!	!	!LO:MO:mod=!LO&colon;DY&colon;ed=brack	!	!	!	!
!	!	!	!	!null	!	!	!	!
!	!	!	!	!LO:MO:null:mod=f	!	!LO:MO:null:mod=f	!	!
2.D/	6	f	2D/	.	4.b-/	.	4.dd\	f
!	!	!	!	!	!	!LO:MO:mod=.	!	!
.	.	.	.	.	8cc\	f	8ee-X\	.
.	.	.	4r	.	4a/	.	4cc\	.
=128-	=128-	=128-	=128-	=128-	=128-	=128-	=128-	=128-
4.E-X\	.	.	4.E-X\	.	2g/	.	2b-/	.
8F\	.	.	8F\	.	.	.	.	.
!LO:TX:t=P:problem=kreska pseudotaktowa	!	!	!	!	!LO:TX:t=P:problem=kreska pseudotaktowa	!	!	!
4D/	.	.	4D/	.	4r	.	4r	.
=129-	=129-	=129-	=129-	=129-	=129-	=129-	=129-	=129-
2.C/	6	.	2C/	.	4.cc\	.	4.ee-X\	.
.	.	.	.	.	8dd\	.	8ff\	.
.	.	.	4r	.	4b-/	.	4dd\	.
*	*	*	*	*	*	*	*custos:cc	*
!	!	!	!	!	!	!	!LO:LB:g=original	!
=130-	=130-	=130-	=130-	=130-	=130-	=130-	=130-	=130-
!LO:TX:t=P:problem=kreska pseudotaktowa	!	!	!LO:TX:t=P:problem=kreska pseudotaktowa	!	!	!	!	!
2.F\	.	.	2.F\	.	4.a/	.	4.cc\	.
.	.	.	.	.	8a/	.	8cc\	.
!	!	!	!	!	!LO:TX:t=P:problem=kreska pseudotaktowa	!	!	!
.	.	.	.	.	4a/	.	4cc\	.
=131-	=131-	=131-	=131-	=131-	=131-	=131-	=131-	=131-
4.D/	6	.	8BB-/L	.	4.f/	.	4.ff\	.
.	.	.	8D/J	.	.	.	.	.
.	.	.	4D/	.	.	.	.	.
8D/	.	.	.	.	8f/	.	8gg\	.
!	!	!	!	!	!	!	!LO:TX:t=P:problem=kreska pseudotaktowa	!
4E-X\	.	.	4E-X\	.	4g/	.	4ee-X\	.
=132-	=132-	=132-	=132-	=132-	=132-	=132-	=132-	=132-
4.F\	7 -3	.	4.F\	.	4.a/	.	4.dd\	.
8F\	.	.	8F\	.	8a/	.	8ee-X\	.
!LO:TX:t=P:problem=kreska pseudotaktowa	!	!	!LO:TX:t=P:problem=kreska pseudotaktowa	!	!LO:TX:t=P:problem=kreska pseudotaktowa	!	!	!
4G\	.	.	4G\	.	4b-/	.	4ff\	.
=133-	=133-	=133-	=133-	=133-	=133-	=133-	=133-	=133-
2E-X\	.	.	4.E-X\	.	4.b-/	.	4.cc\	.
.	.	.	8E-\	.	8b-/	.	8dd\	.
4F\	7 2	.	4F\	.	4a/	.	4ee-X\	.
=134-	=134-	=134-	=134-	=134-	=134-	=134-	=134-	=134-
2BB-/	.	.	2BB-/	.	2b-/	.	2dd\	.
!LO:TX:t=P:problem=kreska pseudotaktowa	!	!	!	!	!LO:TX:t=P:problem=kreska pseudotaktowa	!	!	!
4r	.	.	4r	.	4r	.	4r	.
=135-	=135-	=135-	=135-	=135-	=135-	=135-	=135-	=135-
!	!	!LO:DY:t=p.	!	!	!	!	!	!
2.B-\	6	p	1.r	.	4.g/	p	2.r	.
.	.	.	.	.	8a/	.	.	.
.	.	.	.	.	4f/	.	.	.
=136-	=136-	=136-	=136-	=136-	=136-	=136-	=136-	=136-
!LO:TX:t=P:problem=kreska pseudotaktowa	!	!	!	!	!	!	!	!
2.c\	.	.	.	.	2e/	.	4.cc\	p
.	.	.	.	.	.	.	8dd\	.
!	!	!	!	!	!LO:TX:t=P:problem=kreska pseudotaktowa	!	!	!
.	.	.	.	.	4e/	.	4b-/	.
!	!	!	!LO:MO:mod=*null:null	!	!	!	!	!
*	*	*	*clefC4	*	*	*	*	*
!	!	!	!LO:LB:g=original	!	!	!	!	!
=137-	=137-	=137-	=137-	=137-	=137-	=137-	=137-	=137-
4.d\	.	.	4.d\	p	4.f/	.	2a/	.
8e-X\	.	.	8e-X\	.	8g/	.	.	.
!	!	!	!	!	!LO:SIC:v:s=4e-	!	!	!
4c\	.	.	4c\	.	4e/	.	4r	.
=138-	=138-	=138-	=138-	=138-	=138-	=138-	=138-	=138-
!LO:TX:t=P:problem=kreska pseudotaktowa	!	!	!	!	!	!	!	!
2.B-\	.	.	2B-\	.	4.d/	.	4.b-/	.
.	.	.	.	.	8e/	.	8cc\	.
!	!	!	!LO:TX:t=P:problem=kreska pseudotaktowa	!	!	!	!	!
.	.	.	4r	.	4f/	.	4a/	.
*custos:c	*	*	*	*	*	*	*	*
!LO:LB:g=original	!	!	!	!	!	!	!	!
=139-	=139-	=139-	=139-	=139-	=139-	=139-	=139-	=139-
4.c\	.	.	4.c\	.	2e/	.	2g/	.
8d\	.	.	8d\	.	.	.	.	.
4B-\	.	.	4B-\	.	4r	.	4r	.
!	!	!	!	!	!LO:LB:g=original	!	!	!
=140-	=140-	=140-	=140-	=140-	=140-	=140-	=140-	=140-
2A\	6	f	4.A/	f	4.c/	f	4.cc\	f
.	.	.	8A/	.	8d/	.	8dd\	.
!LO:TX:t=P:problem=kreska pseudotaktowa	!	!	!	!	!	!	!	!
4B-\	.	.	4B-\	.	4d/	.	4b-/	.
=141-	=141-	=141-	=141-	=141-	=141-	=141-	=141-	=141-
4.c\	7 3	.	4.c\	.	4.e/	.	4.b-/	.
8c\	.	.	8c\	.	8e/	.	8cc\	.
!	!	!	!LO:TX:t=P:problem=kreska pseudotaktowa	!	!LO:TX:t=P:problem=kreska pseudotaktowa	!	!LO:TX:t=P:problem=kreska pseudotaktowa	!
4d\	.	.	4d\	.	4f/	.	4a/	.
*	*	*	*	*	*	*	*custos:g	*
!	!	!	!	!	!	!	!LO:LB:g=original	!
=142-	=142-	=142-	=142-	=142-	=142-	=142-	=142-	=142-
4.B-\	6 5	.	4.B-\	.	4.f/	.	4.g/	.
8B-\	.	.	8B-\	.	8f/	.	8a/	.
!LO:TX:t=P:problem=kreska pseudotaktowa	!	!	!	!	!	!	!	!
4c\	.	.	4c\	.	4e/	.	4b-/	.
!	!	!	!LO:MO:mod=*null:null	!	!	!	!	!
*	*	*	*clefF4	*	*	*	*	*
=143-	=143-	=143-	=143-	=143-	=143-	=143-	=143-	=143-
2F\	.	.	2F\	.	2f/	.	2a/	.
!	!	!	!	!	!LO:TX:t=P:problem=kreska pseudotaktowa	!	!	!
4r	.	.	4r	.	4r	.	4r	.
=144-	=144-	=144-	=144-	=144-	=144-	=144-	=144-	=144-
!	!	!LO:DY:t=p.	!	!	!	!	!	!
4.AA/	6	p	4.AA/	p	4.c/	p	4.cc\	p
8AA/	.	.	8AA/	.	8c/	.	8dd\	.
4BB-/	.	.	4BB-/	.	4d/	.	4b-/	.
=145-	=145-	=145-	=145-	=145-	=145-	=145-	=145-	=145-
2C/	7 3	.	4.C/	.	4.e/	.	4.b-/	.
.	.	.	8C/	.	8e/	.	8cc\	.
!LO:TX:t=P:problem=kreska pseudotaktowa	!	!	!	!	!LO:TX:t=P:problem=kreska pseudotaktowa	!	!	!
4D/	.	.	4D/	.	4f/	.	4a/	.
!	!	!	!LO:LB:g=original	!	!	!	!	!
=146-	=146-	=146-	=146-	=146-	=146-	=146-	=146-	=146-
2BB-/	6 5	.	4.BB-/	.	4.f/	.	4.g/	.
.	.	.	8BB-/	.	8f/	.	8a/	.
4C/	.	.	4C/	.	4e/	.	4b-/	.
=147-	=147-	=147-	=147-	=147-	=147-	=147-	=147-	=147-
2FF/	.	.	2FF/	.	2f/	.	2a/	.
!LO:TX:t=P:problem=kreska pseudotaktowa	!	!	!LO:TX:t=P:problem=kreska pseudotaktowa	!	!LO:TX:t=P:problem=kreska pseudotaktowa	!	!	!
4r	.	.	4r	.	4r	.	4r	.
=148-	=148-	=148-	=148-	=148-	=148-	=148-	=148-	=148-
!	!	!LO:MO:mod=!LO&colon;DY&colon;ed=brack	!	!	!	!LO:MO:mod=!LO&colon;DY&colon;ed=brack	!	!
!	!	!null	!	!	!	!null	!	!
!	!	!LO:MO:null:mod=pp	!	!	!	!LO:MO:null:mod=pp	!	!
4.BB-/	6 5	.	4.BB-/	pp	4.f/	.	4.g/	pp
8BB-/	.	.	8BB-/	.	8f/	.	8a/	.
4C/	.	.	4C/	.	4e/	.	4b-/	.
=149-	=149-	=149-	=149-	=149-	=149-	=149-	=149-	=149-
4FF/	.	.	4FF/	.	4f/	.	4a/	.
4r	.	.	4r	.	4r	.	4r	.
4r	.	.	4r	.	4r	.	4r	.
!!LO:TX:a:i:t= :mod=Da Capo al Fine
!LO:TX:b:i:t=Si replica alla:mod=	!	!	!LO:TX:b:i:t=Si replica alla.:mod=	!	!LO:TX:b:i:t=Si replica\nalla:mod=	!	!LO:TX:b:i:t=Si replica alla:mod=	!
==	==	==	==	==	==	==	==	==
*-	*-	*-	*-	*-	*-	*-	*-	*-
!!!system-decoration: [(str)]<klav>
!!!RDF**kern: > = above
!!!RDF**kern: < = below
!!LO:MO:ori
!!!RDF**dynam: p = p.
!!!RDF**dynam: pp = p.p.
!!!RDF**dynam: f = f.
!!LO:MO:end
!!!filter-modern: shed -e "s/^custos:/Xcustos:/I" | shed -e "s/(LO:DY.*):t=(.*$)/$1:T=$2/L; s/LO:DY(.*)(:a:)(.*)/LO:dy:$1$2$3/L; s/LO:DY(.*)(:b:)(.*)/LO:dy:$1$2$3/L; s/LO:DY(.*)(:rj:)(.*)/LO:dy:$1$2$3/L" | shed -e "s/TX(.*):t=P:/tx$1:t=P:/LG" | shed -e "s/LO:N:/LO:n:$1/L" | shed -k -e "s/([^a-gA-Gn#X-])[<>]/$1/g; s/,//D" | sic -sq | modori -m | autostem -r | tie -s | shed -e "s/-//B"
!!!ENC: Andrzej Kubiczek
!!!END: 2022-01-21
!!!EED: Leszek Kubiak
!!!EEV: 2022-01-29
!!!ENC-modern: Andrzej Kubiczek
!!!END-modern: 2022-11-07
